P3
64 64
255
120 180 255
120 180 255
120 180 255
120 180 255
120 180 255
120 180 255
120 180 255
120 180 255
120 180 255
120 180 255
120 180 255
120 180 255
120 180 255
120 180 255
120 180 255
120 180 255
120 180 255
120 180 255
120 180 255
120 180 255
120 180 255
120 180 255
120 180 255
120 180 255
120 180 255
120 180 255
120 180 255
120 180 255
120 180 255
120 180 255
120 180 255
120 180 255
120 180 255
120 180 255
120 180 255
120 180 255
120 180 255
120 180 255
120 180 255
120 180 255
120 180 255
120 180 255
120 180 255
120 180 255
120 180 255
120 180 255
120 180 255
120 180 255
120 180 255
120 180 255
120 180 255
120 180 255
120 180 255
120 180 255
120 180 255
120 180 255
120 180 255
120 180 255
120 180 255
120 180 255
120 180 255
120 180 255
120 180 255
120 180 255
120 180 255
120 180 255
120 180 255
120 180 255
120 180 255
120 180 255
120 180 255
120 180 255
120 180 255
120 180 255
120 180 255
120 180 255
120 180 255
120 180 255
120 180 255
120 180 255
120 180 255
120 180 255
120 180 255
120 180 255
120 180 255
120 180 255
120 180 255
120 180 255
120 180 255
120 180 255
120 180 255
120 180 255
120 180 255
120 180 255
120 180 255
120 180 255
120 180 255
120 180 255
120 180 255
120 180 255
120 180 255
120 180 255
120 180 255
120 180 255
120 180 255
120 180 255
120 180 255
120 180 255
120 180 255
120 180 255
120 180 255
120 180 255
120 180 255
120 180 255
120 180 255
120 180 255
120 180 255
120 180 255
120 180 255
120 180 255
120 180 255
120 180 255
120 180 255
120 180 255
120 180 255
120 180 255
120 180 255
120 180 255
120 180 255
120 180 255
120 180 255
120 180 255
120 180 255
120 180 255
120 180 255
120 180 255
120 180 255
120 180 255
120 180 255
120 180 255
120 180 255
120 180 255
120 180 255
120 180 255
120 180 255
120 180 255
120 180 255
120 180 255
120 180 255
120 180 255
120 180 255
120 180 255
120 180 255
120 180 255
120 180 255
120 180 255
120 180 255
120 180 255
120 180 255
120 180 255
120 180 255
120 180 255
120 180 255
120 180 255
120 180 255
120 180 255
120 180 255
120 180 255
120 180 255
120 180 255
120 180 255
120 180 255
120 180 255
120 180 255
120 180 255
120 180 255
120 180 255
120 180 255
120 180 255
120 180 255
120 180 255
120 180 255
120 180 255
120 180 255
120 180 255
120 180 255
120 180 255
120 180 255
120 180 255
120 180 255
120 180 255
120 180 255
120 180 255
120 180 255
120 180 255
120 180 255
120 180 255
120 180 255
120 180 255
120 180 255
120 180 255
120 180 255
120 180 255
120 180 255
120 180 255
120 180 255
120 180 255
120 180 255
120 180 255
120 180 255
120 180 255
120 180 255
120 180 255
120 180 255
120 180 255
120 180 255
120 180 255
120 180 255
120 180 255
120 180 255
120 180 255
120 180 255
120 180 255
120 180 255
120 180 255
120 180 255
120 180 255
120 180 255
120 180 255
120 180 255
120 180 255
120 180 255
120 180 255
120 180 255
120 180 255
120 180 255
120 180 255
120 180 255
120 180 255
120 180 255
120 180 255
120 180 255
120 180 255
120 180 255
120 180 255
120 180 255
120 180 255
120 180 255
120 180 255
120 180 255
120 180 255
120 180 255
120 180 255
120 180 255
120 180 255
120 180 255
120 180 255
120 180 255
120 180 255
120 180 255
120 180 255
120 180 255
120 180 255
120 180 255
120 180 255
120 180 255
120 180 255
120 180 255
120 180 255
120 180 255
120 180 255
120 180 255
120 180 255
120 180 255
120 180 255
120 180 255
120 180 255
120 180 255
120 180 255
120 180 255
120 180 255
120 180 255
120 180 255
120 180 255
120 180 255
120 180 255
120 180 255
120 180 255
120 180 255
120 180 255
120 180 255
120 180 255
120 180 255
120 180 255
120 180 255
120 180 255
120 180 255
120 180 255
120 180 255
120 180 255
120 180 255
120 180 255
120 180 255
120 180 255
120 180 255
120 180 255
120 180 255
120 180 255
120 180 255
120 180 255
120 180 255
120 180 255
120 180 255
120 180 255
120 180 255
120 180 255
120 180 255
120 180 255
120 180 255
120 180 255
120 180 255
120 180 255
120 180 255
120 180 255
120 180 255
120 180 255
120 180 255
120 180 255
120 180 255
120 180 255
120 180 255
120 180 255
120 180 255
120 180 255
120 180 255
120 180 255
120 180 255
120 180 255
120 180 255
120 180 255
120 180 255
120 180 255
120 180 255
120 180 255
120 180 255
120 180 255
120 180 255
120 180 255
120 180 255
120 180 255
120 180 255
120 180 255
120 180 255
120 180 255
120 180 255
120 180 255
120 180 255
120 180 255
120 180 255
120 180 255
120 180 255
120 180 255
120 180 255
120 180 255
120 180 255
120 180 255
120 180 255
120 180 255
120 180 255
120 180 255
120 180 255
120 180 255
120 180 255
120 180 255
120 180 255
120 180 255
120 180 255
120 180 255
120 180 255
120 180 255
120 180 255
120 180 255
120 180 255
120 180 255
120 180 255
120 180 255
120 180 255
120 180 255
120 180 255
120 180 255
120 180 255
120 180 255
120 180 255
120 180 255
120 180 255
120 180 255
120 180 255
120 180 255
120 180 255
120 180 255
120 180 255
120 180 255
120 180 255
120 180 255
120 180 255
120 180 255
120 180 255
120 180 255
120 180 255
120 180 255
120 180 255
120 180 255
120 180 255
120 180 255
120 180 255
120 180 255
120 180 255
120 180 255
120 180 255
120 180 255
120 180 255
120 180 255
120 180 255
120 180 255
120 180 255
120 180 255
120 180 255
120 180 255
120 180 255
120 180 255
120 180 255
120 180 255
120 180 255
120 180 255
120 180 255
120 180 255
120 180 255
120 180 255
120 180 255
120 180 255
120 180 255
120 180 255
120 180 255
120 180 255
120 180 255
120 180 255
120 180 255
120 180 255
120 180 255
120 180 255
120 180 255
120 180 255
120 180 255
120 180 255
120 180 255
120 180 255
120 180 255
120 180 255
120 180 255
120 180 255
120 180 255
120 180 255
120 180 255
120 180 255
120 180 255
120 180 255
120 180 255
120 180 255
120 180 255
120 180 255
120 180 255
120 180 255
120 180 255
120 180 255
120 180 255
120 180 255
120 180 255
120 180 255
120 180 255
120 180 255
120 180 255
120 180 255
120 180 255
120 180 255
120 180 255
120 180 255
120 180 255
120 180 255
120 180 255
120 180 255
120 180 255
120 180 255
120 180 255
120 180 255
120 180 255
120 180 255
120 180 255
120 180 255
120 180 255
120 180 255
120 180 255
120 180 255
120 180 255
120 180 255
120 180 255
120 180 255
120 180 255
120 180 255
120 180 255
120 180 255
120 180 255
120 180 255
120 180 255
120 180 255
120 180 255
120 180 255
120 180 255
120 180 255
120 180 255
120 180 255
120 180 255
120 180 255
120 180 255
120 180 255
120 180 255
120 180 255
120 180 255
120 180 255
120 180 255
120 180 255
120 180 255
120 180 255
120 180 255
120 180 255
120 180 255
120 180 255
120 180 255
120 180 255
120 180 255
120 180 255
120 180 255
120 180 255
120 180 255
120 180 255
120 180 255
120 180 255
120 180 255
120 180 255
120 180 255
120 180 255
120 180 255
120 180 255
120 180 255
120 180 255
120 180 255
120 180 255
120 180 255
120 180 255
120 180 255
120 180 255
120 180 255
120 180 255
120 180 255
120 180 255
120 180 255
120 180 255
120 180 255
120 180 255
120 180 255
120 180 255
120 180 255
120 180 255
120 180 255
120 180 255
120 180 255
120 180 255
120 180 255
120 180 255
120 180 255
120 180 255
120 180 255
120 180 255
120 180 255
120 180 255
120 180 255
120 180 255
120 180 255
120 180 255
120 180 255
120 180 255
120 180 255
120 180 255
120 180 255
120 180 255
120 180 255
120 180 255
120 180 255
120 180 255
120 180 255
120 180 255
120 180 255
120 180 255
120 180 255
120 180 255
120 180 255
120 180 255
120 180 255
120 180 255
120 180 255
120 180 255
120 180 255
120 180 255
120 180 255
120 180 255
120 180 255
120 180 255
120 180 255
120 180 255
120 180 255
120 180 255
120 180 255
120 180 255
120 180 255
120 180 255
120 180 255
120 180 255
120 180 255
120 180 255
120 180 255
120 180 255
120 180 255
120 180 255
120 180 255
120 180 255
120 180 255
120 180 255
120 180 255
120 180 255
120 180 255
120 180 255
120 180 255
120 180 255
120 180 255
120 180 255
120 180 255
120 180 255
120 180 255
120 180 255
120 180 255
120 180 255
120 180 255
120 180 255
120 180 255
120 180 255
120 180 255
120 180 255
120 180 255
120 180 255
120 180 255
120 180 255
120 180 255
120 180 255
120 180 255
120 180 255
120 180 255
120 180 255
120 180 255
120 180 255
120 180 255
120 180 255
120 180 255
120 180 255
120 180 255
120 180 255
120 180 255
120 180 255
120 180 255
120 180 255
120 180 255
120 180 255
120 180 255
120 180 255
120 180 255
120 180 255
120 180 255
120 180 255
120 180 255
120 180 255
120 180 255
120 180 255
120 180 255
120 180 255
120 180 255
120 180 255
120 180 255
120 180 255
120 180 255
120 180 255
120 180 255
120 180 255
120 180 255
120 180 255
120 180 255
120 180 255
120 180 255
120 180 255
120 180 255
120 180 255
120 180 255
120 180 255
120 180 255
120 180 255
120 180 255
120 180 255
120 180 255
120 180 255
120 180 255
120 180 255
120 180 255
120 180 255
120 180 255
120 180 255
120 180 255
120 180 255
120 180 255
120 180 255
120 180 255
120 180 255
120 180 255
120 180 255
120 180 255
120 180 255
120 180 255
120 180 255
120 180 255
120 180 255
120 180 255
120 180 255
120 180 255
120 180 255
120 180 255
120 180 255
120 180 255
120 180 255
120 180 255
120 180 255
120 180 255
120 180 255
120 180 255
120 180 255
120 180 255
120 180 255
120 180 255
120 180 255
120 180 255
120 180 255
120 180 255
120 180 255
120 180 255
120 180 255
120 180 255
120 180 255
120 180 255
120 180 255
120 180 255
120 180 255
120 180 255
120 180 255
120 180 255
120 180 255
120 180 255
120 180 255
120 180 255
120 180 255
120 180 255
120 180 255
120 180 255
120 180 255
120 180 255
120 180 255
120 180 255
120 180 255
120 180 255
120 180 255
120 180 255
120 180 255
120 180 255
120 180 255
120 180 255
120 180 255
120 180 255
120 180 255
120 180 255
120 180 255
120 180 255
120 180 255
120 180 255
120 180 255
120 180 255
120 180 255
120 180 255
120 180 255
120 180 255
120 180 255
120 180 255
120 180 255
120 180 255
120 180 255
120 180 255
120 180 255
120 180 255
120 180 255
120 180 255
120 180 255
120 180 255
120 180 255
120 180 255
120 180 255
120 180 255
120 180 255
120 180 255
120 180 255
120 180 255
120 180 255
120 180 255
120 180 255
120 180 255
120 180 255
120 180 255
120 180 255
120 180 255
120 180 255
120 180 255
120 180 255
120 180 255
120 180 255
120 180 255
120 180 255
120 180 255
120 180 255
120 180 255
120 180 255
120 180 255
120 180 255
120 180 255
120 180 255
120 180 255
120 180 255
120 180 255
120 180 255
120 180 255
120 180 255
120 180 255
120 180 255
120 180 255
120 180 255
120 180 255
120 180 255
120 180 255
120 180 255
120 180 255
120 180 255
120 180 255
120 180 255
120 180 255
120 180 255
120 180 255
120 180 255
120 180 255
120 180 255
120 180 255
120 180 255
120 180 255
120 180 255
120 180 255
120 180 255
120 180 255
120 180 255
120 180 255
120 180 255
120 180 255
120 180 255
120 180 255
120 180 255
120 180 255
120 180 255
120 180 255
120 180 255
120 180 255
120 180 255
120 180 255
120 180 255
120 180 255
120 180 255
120 180 255
120 180 255
120 180 255
120 180 255
120 180 255
120 180 255
120 180 255
120 180 255
120 180 255
120 180 255
120 180 255
120 180 255
120 180 255
120 180 255
120 180 255
120 180 255
120 180 255
120 180 255
120 180 255
120 180 255
120 180 255
120 180 255
120 180 255
120 180 255
120 180 255
120 180 255
120 180 255
120 180 255
120 180 255
120 180 255
120 180 255
120 180 255
120 180 255
120 180 255
120 180 255
120 180 255
120 180 255
120 180 255
120 180 255
120 180 255
120 180 255
120 180 255
120 180 255
120 180 255
120 180 255
120 180 255
120 180 255
120 180 255
120 180 255
120 180 255
120 180 255
120 180 255
120 180 255
120 180 255
120 180 255
120 180 255
120 180 255
120 180 255
120 180 255
120 180 255
120 180 255
120 180 255
120 180 255
120 180 255
120 180 255
120 180 255
120 180 255
120 180 255
120 180 255
120 180 255
120 180 255
120 180 255
120 180 255
120 180 255
120 180 255
120 180 255
120 180 255
120 180 255
120 180 255
120 180 255
120 180 255
120 180 255
120 180 255
120 180 255
120 180 255
120 180 255
120 180 255
120 180 255
120 180 255
120 180 255
120 180 255
120 180 255
120 180 255
120 180 255
120 180 255
120 180 255
120 180 255
120 180 255
120 180 255
120 180 255
120 180 255
120 180 255
120 180 255
120 180 255
120 180 255
120 180 255
120 180 255
120 180 255
120 180 255
120 180 255
120 180 255
120 180 255
120 180 255
120 180 255
120 180 255
120 180 255
120 180 255
120 180 255
120 180 255
120 180 255
120 180 255
120 180 255
120 180 255
120 180 255
120 180 255
120 180 255
120 180 255
120 180 255
120 180 255
120 180 255
120 180 255
120 180 255
120 180 255
120 180 255
120 180 255
120 180 255
120 180 255
120 180 255
120 180 255
120 180 255
120 180 255
120 180 255
120 180 255
120 180 255
120 180 255
120 180 255
120 180 255
120 180 255
120 180 255
120 180 255
120 180 255
120 180 255
120 180 255
120 180 255
120 180 255
120 180 255
120 180 255
120 180 255
120 180 255
120 180 255
120 180 255
120 180 255
120 180 255
120 180 255
120 180 255
120 180 255
120 180 255
120 180 255
120 180 255
120 180 255
120 180 255
120 180 255
120 180 255
120 180 255
120 180 255
120 180 255
120 180 255
120 180 255
120 180 255
120 180 255
120 180 255
120 180 255
120 180 255
120 180 255
120 180 255
120 180 255
120 180 255
120 180 255
120 180 255
120 180 255
120 180 255
120 180 255
120 180 255
120 180 255
120 180 255
120 180 255
120 180 255
120 180 255
120 180 255
120 180 255
120 180 255
120 180 255
120 180 255
120 180 255
120 180 255
120 180 255
120 180 255
120 180 255
120 180 255
120 180 255
120 180 255
120 180 255
120 180 255
120 180 255
120 180 255
120 180 255
120 180 255
120 180 255
120 180 255
120 180 255
120 180 255
120 180 255
120 180 255
120 180 255
120 180 255
120 180 255
120 180 255
120 180 255
120 180 255
120 180 255
120 180 255
120 180 255
120 180 255
120 180 255
120 180 255
120 180 255
120 180 255
120 180 255
120 180 255
120 180 255
120 180 255
120 180 255
120 180 255
120 180 255
120 180 255
120 180 255
120 180 255
120 180 255
120 180 255
120 180 255
120 180 255
120 180 255
120 180 255
120 180 255
120 180 255
120 180 255
120 180 255
120 180 255
120 180 255
120 180 255
120 180 255
120 180 255
120 180 255
120 180 255
120 180 255
120 180 255
120 180 255
120 180 255
120 180 255
120 180 255
120 180 255
120 180 255
120 180 255
120 180 255
120 180 255
120 180 255
120 180 255
120 180 255
120 180 255
120 180 255
120 180 255
120 180 255
120 180 255
120 180 255
120 180 255
120 180 255
120 180 255
120 180 255
120 180 255
120 180 255
120 180 255
120 180 255
120 180 255
120 180 255
120 180 255
120 180 255
120 180 255
120 180 255
120 180 255
120 180 255
120 180 255
120 180 255
120 180 255
120 180 255
120 180 255
120 180 255
120 180 255
120 180 255
120 180 255
120 180 255
120 180 255
120 180 255
120 180 255
120 180 255
120 180 255
120 180 255
120 180 255
120 180 255
120 180 255
120 180 255
120 180 255
120 180 255
120 180 255
120 180 255
120 180 255
120 180 255
120 180 255
120 180 255
120 180 255
120 180 255
120 180 255
120 180 255
120 180 255
120 180 255
120 180 255
120 180 255
120 180 255
120 180 255
120 180 255
120 180 255
120 180 255
120 180 255
120 180 255
120 180 255
120 180 255
120 180 255
120 180 255
120 180 255
120 180 255
120 180 255
120 180 255
120 180 255
120 180 255
120 180 255
120 180 255
120 180 255
120 180 255
120 180 255
120 180 255
120 180 255
120 180 255
120 180 255
120 180 255
120 180 255
120 180 255
120 180 255
120 180 255
120 180 255
120 180 255
120 180 255
120 180 255
120 180 255
120 180 255
120 180 255
120 180 255
120 180 255
120 180 255
120 180 255
120 180 255
120 180 255
120 180 255
120 180 255
120 180 255
120 180 255
120 180 255
120 180 255
120 180 255
120 180 255
120 180 255
120 180 255
120 180 255
120 180 255
120 180 255
120 180 255
120 180 255
120 180 255
120 180 255
120 180 255
120 180 255
120 180 255
120 180 255
120 180 255
120 180 255
120 180 255
120 180 255
120 180 255
120 180 255
120 180 255
120 180 255
120 180 255
120 180 255
120 180 255
120 180 255
120 180 255
120 180 255
120 180 255
120 180 255
120 180 255
120 180 255
120 180 255
120 180 255
120 180 255
120 180 255
120 180 255
120 180 255
120 180 255
120 180 255
120 180 255
120 180 255
120 180 255
120 180 255
120 180 255
120 180 255
120 180 255
120 180 255
120 180 255
120 180 255
120 180 255
120 180 255
120 180 255
120 180 255
120 180 255
120 180 255
120 180 255
120 180 255
120 180 255
120 180 255
120 180 255
120 180 255
120 180 255
120 180 255
120 180 255
120 180 255
120 180 255
120 180 255
120 180 255
120 180 255
120 180 255
120 180 255
120 180 255
120 180 255
120 180 255
120 180 255
120 180 255
120 180 255
120 180 255
120 180 255
120 180 255
120 180 255
120 180 255
120 180 255
120 180 255
120 180 255
120 180 255
120 180 255
120 180 255
120 180 255
120 180 255
120 180 255
120 180 255
120 180 255
120 180 255
120 180 255
120 180 255
120 180 255
120 180 255
120 180 255
120 180 255
120 180 255
120 180 255
120 180 255
120 180 255
120 180 255
120 180 255
120 180 255
120 180 255
120 180 255
120 180 255
120 180 255
120 180 255
120 180 255
120 180 255
120 180 255
120 180 255
120 180 255
120 180 255
120 180 255
120 180 255
120 180 255
120 180 255
120 180 255
120 180 255
120 180 255
120 180 255
120 180 255
120 180 255
120 180 255
120 180 255
120 180 255
120 180 255
120 180 255
120 180 255
120 180 255
120 180 255
120 180 255
120 180 255
120 180 255
120 180 255
120 180 255
120 180 255
120 180 255
120 180 255
120 180 255
120 180 255
120 180 255
120 180 255
120 180 255
120 180 255
120 180 255
120 180 255
120 180 255
120 180 255
120 180 255
120 180 255
120 180 255
120 180 255
120 180 255
120 180 255
120 180 255
120 180 255
120 180 255
120 180 255
120 180 255
120 180 255
120 180 255
120 180 255
120 180 255
120 180 255
120 180 255
120 180 255
120 180 255
120 180 255
120 180 255
120 180 255
120 180 255
120 180 255
120 180 255
120 180 255
120 180 255
120 180 255
120 180 255
120 180 255
120 180 255
120 180 255
120 180 255
120 180 255
120 180 255
120 180 255
120 180 255
120 180 255
120 180 255
120 180 255
120 180 255
120 180 255
120 180 255
120 180 255
120 180 255
120 180 255
120 180 255
120 180 255
120 180 255
120 180 255
120 180 255
120 180 255
120 180 255
120 180 255
120 180 255
120 180 255
120 180 255
120 180 255
120 180 255
120 180 255
120 180 255
120 180 255
120 180 255
120 180 255
120 180 255
120 180 255
120 180 255
120 180 255
120 180 255
120 180 255
120 180 255
120 180 255
120 180 255
120 180 255
120 180 255
120 180 255
120 180 255
120 180 255
120 180 255
120 180 255
120 180 255
120 180 255
120 180 255
120 180 255
120 180 255
120 180 255
120 180 255
120 180 255
120 180 255
120 180 255
120 180 255
120 180 255
120 180 255
120 180 255
120 180 255
120 180 255
120 180 255
120 180 255
120 180 255
120 180 255
120 180 255
120 180 255
120 180 255
120 180 255
120 180 255
120 180 255
120 180 255
120 180 255
120 180 255
120 180 255
120 180 255
120 180 255
120 180 255
120 180 255
120 180 255
120 180 255
120 180 255
120 180 255
120 180 255
120 180 255
120 180 255
120 180 255
120 180 255
120 180 255
120 180 255
120 180 255
120 180 255
120 180 255
120 180 255
120 180 255
120 180 255
120 180 255
120 180 255
120 180 255
120 180 255
120 180 255
120 180 255
120 180 255
120 180 255
120 180 255
120 180 255
120 180 255
120 180 255
120 180 255
120 180 255
120 180 255
120 180 255
120 180 255
120 180 255
120 180 255
120 180 255
120 180 255
120 180 255
120 180 255
120 180 255
120 180 255
120 180 255
120 180 255
120 180 255
120 180 255
120 180 255
120 180 255
120 180 255
120 180 255
120 180 255
120 180 255
120 180 255
120 180 255
120 180 255
120 180 255
120 180 255
120 180 255
120 180 255
120 180 255
120 180 255
120 180 255
120 180 255
120 180 255
120 180 255
120 180 255
120 180 255
120 180 255
120 180 255
120 180 255
120 180 255
120 180 255
120 180 255
120 180 255
120 180 255
120 180 255
120 180 255
120 180 255
120 180 255
120 180 255
120 180 255
120 180 255
120 180 255
120 180 255
120 180 255
120 180 255
120 180 255
120 180 255
120 180 255
120 180 255
120 180 255
120 180 255
120 180 255
120 180 255
120 180 255
120 180 255
120 180 255
120 180 255
120 180 255
120 180 255
120 180 255
120 180 255
120 180 255
120 180 255
120 180 255
120 180 255
120 180 255
120 180 255
120 180 255
120 180 255
120 180 255
120 180 255
120 180 255
120 180 255
120 180 255
120 180 255
120 180 255
120 180 255
120 180 255
120 180 255
120 180 255
120 180 255
120 180 255
120 180 255
120 180 255
120 180 255
120 180 255
120 180 255
120 180 255
120 180 255
120 180 255
120 180 255
120 180 255
120 180 255
120 180 255
120 180 255
120 180 255
120 180 255
120 180 255
120 180 255
120 180 255
120 180 255
120 180 255
120 180 255
120 180 255
120 180 255
120 180 255
120 180 255
120 180 255
120 180 255
120 180 255
120 180 255
120 180 255
120 180 255
120 180 255
120 180 255
120 180 255
120 180 255
120 180 255
120 180 255
120 180 255
120 180 255
120 180 255
120 180 255
120 180 255
120 180 255
120 180 255
120 180 255
120 180 255
120 180 255
120 180 255
120 180 255
120 180 255
120 180 255
120 180 255
120 180 255
120 180 255
120 180 255
120 180 255
120 180 255
120 180 255
120 180 255
120 180 255
120 180 255
120 180 255
120 180 255
120 180 255
120 180 255
120 180 255
120 180 255
120 180 255
120 180 255
120 180 255
120 180 255
120 180 255
120 180 255
120 180 255
120 180 255
120 180 255
120 180 255
120 180 255
120 180 255
120 180 255
120 180 255
120 180 255
120 180 255
120 180 255
120 180 255
120 180 255
120 180 255
120 180 255
120 180 255
120 180 255
120 180 255
120 180 255
120 180 255
120 180 255
120 180 255
120 180 255
120 180 255
120 180 255
120 180 255
120 180 255
120 180 255
120 180 255
120 180 255
120 180 255
120 180 255
120 180 255
120 180 255
120 180 255
120 180 255
120 180 255
120 180 255
120 180 255
120 180 255
120 180 255
120 180 255
120 180 255
120 180 255
120 180 255
120 180 255
120 180 255
120 180 255
120 180 255
120 180 255
120 180 255
120 180 255
120 180 255
120 180 255
120 180 255
120 180 255
120 180 255
120 180 255
120 180 255
120 180 255
120 180 255
120 180 255
120 180 255
120 180 255
120 180 255
120 180 255
120 180 255
120 180 255
120 180 255
120 180 255
120 180 255
120 180 255
120 180 255
120 180 255
120 180 255
120 180 255
120 180 255
120 180 255
120 180 255
120 180 255
120 180 255
120 180 255
120 180 255
120 180 255
120 180 255
120 180 255
120 180 255
120 180 255
120 180 255
120 180 255
120 180 255
120 180 255
120 180 255
120 180 255
120 180 255
120 180 255
120 180 255
120 180 255
120 180 255
120 180 255
120 180 255
120 180 255
120 180 255
120 180 255
120 180 255
120 180 255
120 180 255
120 180 255
120 180 255
120 180 255
120 180 255
120 180 255
120 180 255
120 180 255
120 180 255
120 180 255
120 180 255
120 180 255
120 180 255
120 180 255
120 180 255
120 180 255
120 180 255
120 180 255
120 180 255
120 180 255
120 180 255
120 180 255
120 180 255
120 180 255
120 180 255
120 180 255
120 180 255
120 180 255
120 180 255
120 180 255
120 180 255
120 180 255
120 180 255
120 180 255
120 180 255
120 180 255
120 180 255
120 180 255
120 180 255
120 180 255
120 180 255
120 180 255
120 180 255
120 180 255
120 180 255
120 180 255
120 180 255
120 180 255
120 180 255
120 180 255
120 180 255
120 180 255
120 180 255
120 180 255
120 180 255
120 180 255
120 180 255
120 180 255
120 180 255
120 180 255
120 180 255
120 180 255
120 180 255
120 180 255
120 180 255
120 180 255
120 180 255
120 180 255
120 180 255
120 180 255
120 180 255
120 180 255
120 180 255
120 180 255
120 180 255
120 180 255
120 180 255
120 180 255
120 180 255
120 180 255
120 180 255
120 180 255
120 180 255
120 180 255
120 180 255
120 180 255
120 180 255
120 180 255
120 180 255
120 180 255
120 180 255
120 180 255
120 180 255
120 180 255
120 180 255
120 180 255
120 180 255
120 180 255
120 180 255
120 180 255
120 180 255
120 180 255
120 180 255
120 180 255
120 180 255
120 180 255
120 180 255
120 180 255
120 180 255
120 180 255
120 180 255
120 180 255
120 180 255
120 180 255
120 180 255
120 180 255
120 180 255
120 180 255
120 180 255
120 180 255
120 180 255
120 180 255
120 180 255
120 180 255
120 180 255
120 180 255
120 180 255
120 180 255
120 180 255
120 180 255
120 180 255
120 180 255
120 180 255
120 180 255
120 180 255
120 180 255
120 180 255
120 180 255
120 180 255
120 180 255
120 180 255
120 180 255
120 180 255
120 180 255
120 180 255
120 180 255
120 180 255
120 180 255
120 180 255
120 180 255
120 180 255
120 180 255
120 180 255
120 180 255
120 180 255
120 180 255
120 180 255
120 180 255
120 180 255
120 180 255
120 180 255
120 180 255
120 180 255
120 180 255
120 180 255
120 180 255
120 180 255
120 180 255
120 180 255
120 180 255
120 180 255
120 180 255
120 180 255
120 180 255
120 180 255
120 180 255
120 180 255
120 180 255
120 180 255
120 180 255
120 180 255
120 180 255
120 180 255
120 180 255
120 180 255
120 180 255
120 180 255
120 180 255
120 180 255
120 180 255
120 180 255
120 180 255
120 180 255
120 180 255
120 180 255
120 180 255
120 180 255
120 180 255
120 180 255
120 180 255
120 180 255
120 180 255
120 180 255
120 180 255
120 180 255
120 180 255
120 180 255
120 180 255
120 180 255
120 180 255
120 180 255
120 180 255
120 180 255
120 180 255
120 180 255
120 180 255
120 180 255
120 180 255
120 180 255
120 180 255
120 180 255
120 180 255
120 180 255
120 180 255
120 180 255
120 180 255
120 180 255
120 180 255
120 180 255
120 180 255
120 180 255
120 180 255
120 180 255
120 180 255
120 180 255
120 180 255
120 180 255
120 180 255
120 180 255
120 180 255
120 180 255
120 180 255
120 180 255
120 180 255
120 180 255
120 180 255
120 180 255
120 180 255
120 180 255
120 180 255
120 180 255
120 180 255
120 180 255
120 180 255
120 180 255
120 180 255
120 180 255
120 180 255
120 180 255
120 180 255
120 180 255
120 180 255
120 180 255
120 180 255
120 180 255
120 180 255
120 180 255
120 180 255
120 180 255
120 180 255
120 180 255
120 180 255
120 180 255
120 180 255
120 180 255
120 180 255
120 180 255
120 180 255
120 180 255
120 180 255
120 180 255
120 180 255
120 180 255
120 180 255
120 180 255
120 180 255
120 180 255
120 180 255
120 180 255
120 180 255
120 180 255
120 180 255
120 180 255
120 180 255
120 180 255
120 180 255
120 180 255
120 180 255
120 180 255
120 180 255
120 180 255
120 180 255
120 180 255
120 180 255
120 180 255
120 180 255
120 180 255
120 180 255
120 180 255
120 180 255
120 180 255
120 180 255
120 180 255
120 180 255
120 180 255
120 180 255
120 180 255
120 180 255
120 180 255
120 180 255
120 180 255
120 180 255
120 180 255
120 180 255
120 180 255
120 180 255
120 180 255
120 180 255
120 180 255
120 180 255
120 180 255
120 180 255
120 180 255
120 180 255
120 180 255
120 180 255
120 180 255
120 180 255
120 180 255
120 180 255
120 180 255
120 180 255
120 180 255
120 180 255
120 180 255
120 180 255
120 180 255
120 180 255
120 180 255
120 180 255
120 180 255
120 180 255
120 180 255
120 180 255
120 180 255
120 180 255
120 180 255
120 180 255
120 180 255
120 180 255
120 180 255
120 180 255
120 180 255
120 180 255
120 180 255
120 180 255
120 180 255
120 180 255
120 180 255
120 180 255
120 180 255
120 180 255
120 180 255
120 180 255
120 180 255
120 180 255
120 180 255
120 180 255
120 180 255
120 180 255
120 180 255
120 180 255
120 180 255
120 180 255
120 180 255
120 180 255
120 180 255
120 180 255
120 180 255
120 180 255
120 180 255
120 180 255
120 180 255
120 180 255
120 180 255
120 180 255
120 180 255
120 180 255
120 180 255
120 180 255
120 180 255
120 180 255
120 180 255
120 180 255
120 180 255
120 180 255
120 180 255
120 180 255
120 180 255
120 180 255
120 180 255
120 180 255
120 180 255
120 180 255
120 180 255
120 180 255
120 180 255
120 180 255
120 180 255
120 180 255
120 180 255
120 180 255
120 180 255
120 180 255
120 180 255
120 180 255
120 180 255
120 180 255
120 180 255
120 180 255
120 180 255
120 180 255
120 180 255
120 180 255
120 180 255
120 180 255
120 180 255
120 180 255
120 180 255
120 180 255
120 180 255
120 180 255
120 180 255
120 180 255
120 180 255
120 180 255
120 180 255
120 180 255
120 180 255
120 180 255
120 180 255
120 180 255
120 180 255
120 180 255
120 180 255
120 180 255
120 180 255
120 180 255
120 180 255
120 180 255
120 180 255
120 180 255
120 180 255
120 180 255
120 180 255
120 180 255
120 180 255
120 180 255
120 180 255
120 180 255
120 180 255
120 180 255
120 180 255
120 180 255
120 180 255
120 180 255
120 180 255
120 180 255
120 180 255
120 180 255
120 180 255
120 180 255
120 180 255
120 180 255
120 180 255
120 180 255
120 180 255
120 180 255
120 180 255
120 180 255
120 180 255
120 180 255
120 180 255
120 180 255
120 180 255
120 180 255
120 180 255
120 180 255
120 180 255
120 180 255
120 180 255
120 180 255
120 180 255
120 180 255
120 180 255
120 180 255
120 180 255
120 180 255
120 180 255
120 180 255
120 180 255
120 180 255
120 180 255
120 180 255
120 180 255
120 180 255
120 180 255
120 180 255
120 180 255
120 180 255
120 180 255
120 180 255
120 180 255
120 180 255
120 180 255
120 180 255
120 180 255
120 180 255
120 180 255
120 180 255
120 180 255
120 180 255
120 180 255
120 180 255
120 180 255
120 180 255
120 180 255
120 180 255
120 180 255
120 180 255
120 180 255
120 180 255
120 180 255
120 180 255
120 180 255
120 180 255
120 180 255
120 180 255
120 180 255
120 180 255
120 180 255
120 180 255
120 180 255
120 180 255
120 180 255
120 180 255
120 180 255
120 180 255
120 180 255
120 180 255
120 180 255
120 180 255
120 180 255
120 180 255
120 180 255
120 180 255
120 180 255
120 180 255
120 180 255
120 180 255
120 180 255
120 180 255
120 180 255
120 180 255
120 180 255
120 180 255
120 180 255
120 180 255
120 180 255
120 180 255
120 180 255
120 180 255
120 180 255
120 180 255
120 180 255
120 180 255
120 180 255
120 180 255
120 180 255
120 180 255
120 180 255
120 180 255
120 180 255
120 180 255
120 180 255
120 180 255
120 180 255
120 180 255
120 180 255
120 180 255
120 180 255
120 180 255
120 180 255
120 180 255
120 180 255
120 180 255
120 180 255
120 180 255
120 180 255
120 180 255
120 180 255
120 180 255
120 180 255
120 180 255
120 180 255
120 180 255
120 180 255
120 180 255
120 180 255
120 180 255
120 180 255
120 180 255
120 180 255
120 180 255
120 180 255
120 180 255
120 180 255
120 180 255
120 180 255
120 180 255
120 180 255
120 180 255
120 180 255
120 180 255
120 180 255
120 180 255
120 180 255
120 180 255
120 180 255
120 180 255
120 180 255
120 180 255
120 180 255
120 180 255
120 180 255
120 180 255
120 180 255
120 180 255
120 180 255
120 180 255
120 180 255
120 180 255
120 180 255
120 180 255
120 180 255
120 180 255
120 180 255
120 180 255
120 180 255
120 180 255
120 180 255
120 180 255
120 180 255
120 180 255
120 180 255
120 180 255
120 180 255
120 180 255
120 180 255
120 180 255
120 180 255
120 180 255
120 180 255
120 180 255
120 180 255
120 180 255
120 180 255
120 180 255
120 180 255
120 180 255
120 180 255
120 180 255
120 180 255
120 180 255
120 180 255
120 180 255
120 180 255
120 180 255
120 180 255
120 180 255
120 180 255
120 180 255
120 180 255
120 180 255
120 180 255
120 180 255
120 180 255
120 180 255
120 180 255
120 180 255
120 180 255
120 180 255
120 180 255
120 180 255
120 180 255
120 180 255
120 180 255
120 180 255
120 180 255
120 180 255
120 180 255
120 180 255
120 180 255
120 180 255
120 180 255
120 180 255
120 180 255
120 180 255
120 180 255
120 180 255
120 180 255
120 180 255
120 180 255
120 180 255
120 180 255
120 180 255
120 180 255
120 180 255
120 180 255
120 180 255
120 180 255
120 180 255
120 180 255
120 180 255
120 180 255
120 180 255
120 180 255
120 180 255
120 180 255
120 180 255
120 180 255
120 180 255
120 180 255
120 180 255
120 180 255
120 180 255
120 180 255
120 180 255
120 180 255
120 180 255
120 180 255
120 180 255
120 180 255
120 180 255
120 180 255
120 180 255
120 180 255
120 180 255
120 180 255
120 180 255
120 180 255
120 180 255
120 180 255
120 180 255
120 180 255
120 180 255
120 180 255
120 180 255
120 180 255
120 180 255
120 180 255
120 180 255
120 180 255
120 180 255
120 180 255
120 180 255
120 180 255
120 180 255
120 180 255
120 180 255
120 180 255
120 180 255
120 180 255
120 180 255
120 180 255
120 180 255
120 180 255
120 180 255
120 180 255
120 180 255
120 180 255
120 180 255
120 180 255
120 180 255
120 180 255
120 180 255
120 180 255
120 180 255
120 180 255
120 180 255
120 180 255
120 180 255
120 180 255
120 180 255
120 180 255
120 180 255
120 180 255
120 180 255
120 180 255
120 180 255
120 180 255
120 180 255
120 180 255
120 180 255
120 180 255
120 180 255
120 180 255
120 180 255
120 180 255
120 180 255
120 180 255
120 180 255
120 180 255
120 180 255
120 180 255
120 180 255
120 180 255
120 180 255
120 180 255
120 180 255
120 180 255
120 180 255
120 180 255
120 180 255
120 180 255
120 180 255
120 180 255
120 180 255
120 180 255
120 180 255
120 180 255
120 180 255
120 180 255
120 180 255
120 180 255
120 180 255
120 180 255
120 180 255
120 180 255
120 180 255
120 180 255
120 180 255
120 180 255
120 180 255
120 180 255
120 180 255
120 180 255
120 180 255
120 180 255
120 180 255
120 180 255
120 180 255
120 180 255
120 180 255
120 180 255
120 180 255
120 180 255
120 180 255
120 180 255
120 180 255
120 180 255
120 180 255
120 180 255
120 180 255
120 180 255
120 180 255
120 180 255
120 180 255
120 180 255
120 180 255
120 180 255
120 180 255
120 180 255
120 180 255
120 180 255
120 180 255
120 180 255
120 180 255
120 180 255
120 180 255
120 180 255
120 180 255
120 180 255
120 180 255
120 180 255
120 180 255
120 180 255
120 180 255
120 180 255
120 180 255
120 180 255
120 180 255
120 180 255
120 180 255
120 180 255
120 180 255
120 180 255
120 180 255
120 180 255
120 180 255
120 180 255
120 180 255
120 180 255
120 180 255
120 180 255
120 180 255
120 180 255
120 180 255
120 180 255
120 180 255
120 180 255
120 180 255
120 180 255
120 180 255
120 180 255
120 180 255
120 180 255
120 180 255
120 180 255
120 180 255
120 180 255
120 180 255
120 180 255
120 180 255
120 180 255
120 180 255
120 180 255
120 180 255
120 180 255
120 180 255
120 180 255
120 180 255
120 180 255
120 180 255
120 180 255
120 180 255
120 180 255
120 180 255
120 180 255
120 180 255
120 180 255
120 180 255
120 180 255
120 180 255
120 180 255
120 180 255
120 180 255
120 180 255
120 180 255
120 180 255
120 180 255
120 180 255
120 180 255
120 180 255
120 180 255
120 180 255
120 180 255
120 180 255
120 180 255
120 180 255
120 180 255
120 180 255
120 180 255
120 180 255
120 180 255
120 180 255
120 180 255
120 180 255
120 180 255
120 180 255
120 180 255
120 180 255
120 180 255
120 180 255
120 180 255
120 180 255
120 180 255
120 180 255
120 180 255
120 180 255
120 180 255
120 180 255
120 180 255
120 180 255
120 180 255
120 180 255
120 180 255
120 180 255
120 180 255
120 180 255
120 180 255
120 180 255
120 180 255
120 180 255
120 180 255
120 180 255
120 180 255
120 180 255
120 180 255
120 180 255
120 180 255
120 180 255
120 180 255
120 180 255
120 180 255
120 180 255
120 180 255
120 180 255
120 180 255
120 180 255
120 180 255
120 180 255
120 180 255
120 180 255
120 180 255
120 180 255
120 180 255
120 180 255
120 180 255
120 180 255
120 180 255
120 180 255
120 180 255
120 180 255
120 180 255
120 180 255
120 180 255
120 180 255
120 180 255
120 180 255
120 180 255
120 180 255
120 180 255
120 180 255
120 180 255
120 180 255
120 180 255
120 180 255
120 180 255
120 180 255
120 180 255
120 180 255
120 180 255
120 180 255
120 180 255
120 180 255
120 180 255
120 180 255
120 180 255
120 180 255
120 180 255
120 180 255
120 180 255
120 180 255
120 180 255
120 180 255
120 180 255
120 180 255
120 180 255
120 180 255
120 180 255
120 180 255
120 180 255
120 180 255
120 180 255
120 180 255
120 180 255
120 180 255
120 180 255
120 180 255
120 180 255
120 180 255
120 180 255
120 180 255
120 180 255
120 180 255
120 180 255
120 180 255
120 180 255
120 180 255
120 180 255
120 180 255
120 180 255
120 180 255
120 180 255
120 180 255
120 180 255
120 180 255
120 180 255
120 180 255
120 180 255
120 180 255
120 180 255
120 180 255
120 180 255
120 180 255
120 180 255
120 180 255
120 180 255
120 180 255
120 180 255
120 180 255
120 180 255
120 180 255
120 180 255
120 180 255
120 180 255
120 180 255
120 180 255
120 180 255
120 180 255
120 180 255
120 180 255
120 180 255
120 180 255
120 180 255
120 180 255
120 180 255
120 180 255
120 180 255
120 180 255
120 180 255
120 180 255
120 180 255
120 180 255
120 180 255
120 180 255
120 180 255
120 180 255
120 180 255
120 180 255
120 180 255
120 180 255
120 180 255
120 180 255
120 180 255
120 180 255
120 180 255
120 180 255
120 180 255
120 180 255
120 180 255
120 180 255
120 180 255
120 180 255
120 180 255
120 180 255
120 180 255
120 180 255
120 180 255
120 180 255
120 180 255
120 180 255
120 180 255
120 180 255
120 180 255
120 180 255
120 180 255
120 180 255
120 180 255
120 180 255
120 180 255
120 180 255
120 180 255
120 180 255
120 180 255
120 180 255
120 180 255
120 180 255
120 180 255
120 180 255
120 180 255
120 180 255
120 180 255
120 180 255
120 180 255
120 180 255
120 180 255
120 180 255
120 180 255
120 180 255
120 180 255
120 180 255
120 180 255
120 180 255
120 180 255
120 180 255
120 180 255
120 180 255
120 180 255
120 180 255
120 180 255
120 180 255
120 180 255
120 180 255
120 180 255
120 180 255
120 180 255
120 180 255
120 180 255
120 180 255
120 180 255
120 180 255
120 180 255
120 180 255
120 180 255
120 180 255
120 180 255
120 180 255
120 180 255
120 180 255
120 180 255
120 180 255
120 180 255
120 180 255
120 180 255
120 180 255
120 180 255
120 180 255
120 180 255
120 180 255
120 180 255
120 180 255
120 180 255
120 180 255
120 180 255
120 180 255
120 180 255
120 180 255
120 180 255
120 180 255
120 180 255
120 180 255
120 180 255
120 180 255
120 180 255
120 180 255
120 180 255
120 180 255
120 180 255
120 180 255
120 180 255
120 180 255
120 180 255
120 180 255
120 180 255
120 180 255
120 180 255
120 180 255
120 180 255
120 180 255
120 180 255
120 180 255
120 180 255
120 180 255
120 180 255
120 180 255
120 180 255
120 180 255
120 180 255
120 180 255
120 180 255
120 180 255
120 180 255
120 180 255
120 180 255
120 180 255
120 180 255
120 180 255
120 180 255
120 180 255
120 180 255
120 180 255
120 180 255
120 180 255
120 180 255
120 180 255
120 180 255
120 180 255
120 180 255
120 180 255
120 180 255
120 180 255
120 180 255
120 180 255
120 180 255
120 180 255
120 180 255
120 180 255
120 180 255
120 180 255
120 180 255
120 180 255
120 180 255
120 180 255
120 180 255
120 180 255
120 180 255
120 180 255
120 180 255
120 180 255
120 180 255
120 180 255
120 180 255
120 180 255
120 180 255
120 180 255
120 180 255
120 180 255
120 180 255
120 180 255
120 180 255
120 180 255
120 180 255
120 180 255
120 180 255
120 180 255
120 180 255
120 180 255
120 180 255
120 180 255
120 180 255
120 180 255
120 180 255
120 180 255
120 180 255
120 180 255
120 180 255
120 180 255
120 180 255
120 180 255
120 180 255
120 180 255
120 180 255
120 180 255
120 180 255
120 180 255
120 180 255
120 180 255
120 180 255
120 180 255
120 180 255
120 180 255
120 180 255
120 180 255
120 180 255
120 180 255
120 180 255
120 180 255
120 180 255
120 180 255
120 180 255
120 180 255
120 180 255
120 180 255
120 180 255
120 180 255
120 180 255
120 180 255
120 180 255
120 180 255
120 180 255
120 180 255
120 180 255
120 180 255
120 180 255
120 180 255
120 180 255
120 180 255
120 180 255
120 180 255
120 180 255
120 180 255
120 180 255
120 180 255
120 180 255
120 180 255
120 180 255
120 180 255
120 180 255
120 180 255
120 180 255
120 180 255
120 180 255
120 180 255
120 180 255
120 180 255
120 180 255
120 180 255
120 180 255
120 180 255
120 180 255
120 180 255
120 180 255
120 180 255
120 180 255
120 180 255
120 180 255
120 180 255
120 180 255
120 180 255
120 180 255
120 180 255
120 180 255
120 180 255
120 180 255
120 180 255
120 180 255
120 180 255
120 180 255
120 180 255
120 180 255
120 180 255
120 180 255
120 180 255
120 180 255
120 180 255
120 180 255
120 180 255
120 180 255
120 180 255
120 180 255
120 180 255
120 180 255
120 180 255
120 180 255
120 180 255
120 180 255
120 180 255
120 180 255
120 180 255
120 180 255
120 180 255
120 180 255
120 180 255
120 180 255
120 180 255
120 180 255
120 180 255
120 180 255
120 180 255
120 180 255
120 180 255
120 180 255
120 180 255
120 180 255
120 180 255
120 180 255
120 180 255
120 180 255
120 180 255
120 180 255
120 180 255
120 180 255
120 180 255
120 180 255
120 180 255
120 180 255
120 180 255
120 180 255
120 180 255
120 180 255
120 180 255
120 180 255
120 180 255
120 180 255
120 180 255
120 180 255
120 180 255
120 180 255
120 180 255
120 180 255
120 180 255
120 180 255
120 180 255
120 180 255
120 180 255
120 180 255
120 180 255
120 180 255
120 180 255
120 180 255
120 180 255
120 180 255
120 180 255
120 180 255
120 180 255
120 180 255
120 180 255
120 180 255
120 180 255
120 180 255
120 180 255
120 180 255
120 180 255
120 180 255
120 180 255
120 180 255
120 180 255
120 180 255
120 180 255
120 180 255
120 180 255
120 180 255
120 180 255
120 180 255
120 180 255
120 180 255
120 180 255
120 180 255
120 180 255
120 180 255
120 180 255
120 180 255
120 180 255
120 180 255
120 180 255
120 180 255
120 180 255
120 180 255
120 180 255
120 180 255
120 180 255
120 180 255
120 180 255
120 180 255
120 180 255
120 180 255
120 180 255
120 180 255
120 180 255
120 180 255
120 180 255
120 180 255
120 180 255
120 180 255
120 180 255
120 180 255
120 180 255
120 180 255
120 180 255
120 180 255
120 180 255
120 180 255
120 180 255
120 180 255
120 180 255
120 180 255
120 180 255
120 180 255
120 180 255
120 180 255
120 180 255
120 180 255
120 180 255
120 180 255
120 180 255
120 180 255
120 180 255
120 180 255
120 180 255
120 180 255
120 180 255
120 180 255
120 180 255
120 180 255
120 180 255
120 180 255
120 180 255
120 180 255
120 180 255
120 180 255
120 180 255
120 180 255
120 180 255
120 180 255
120 180 255
120 180 255
120 180 255
120 180 255
120 180 255
120 180 255
120 180 255
120 180 255
120 180 255
120 180 255
120 180 255
120 180 255
120 180 255
120 180 255
120 180 255
120 180 255
120 180 255
120 180 255
120 180 255
120 180 255
120 180 255
120 180 255
120 180 255
120 180 255
120 180 255
120 180 255
120 180 255
120 180 255
120 180 255
120 180 255
120 180 255
120 180 255
120 180 255
120 180 255
120 180 255
120 180 255
120 180 255
120 180 255
120 180 255
120 180 255
120 180 255
120 180 255
120 180 255
120 180 255
120 180 255
120 180 255
120 180 255
120 180 255
120 180 255
120 180 255
120 180 255
120 180 255
120 180 255
120 180 255
120 180 255
120 180 255
120 180 255
120 180 255
120 180 255
120 180 255
120 180 255
120 180 255
120 180 255
120 180 255
120 180 255
120 180 255
120 180 255
120 180 255
120 180 255
120 180 255
120 180 255
120 180 255
120 180 255
120 180 255
120 180 255
120 180 255
120 180 255
120 180 255
120 180 255
120 180 255
120 180 255
120 180 255
120 180 255
120 180 255
120 180 255
120 180 255
120 180 255
120 180 255
120 180 255
120 180 255
120 180 255
120 180 255
120 180 255
120 180 255
120 180 255
120 180 255
120 180 255
120 180 255
120 180 255
120 180 255
120 180 255
120 180 255
120 180 255
120 180 255
120 180 255
120 180 255
120 180 255
120 180 255
120 180 255
120 180 255
120 180 255
120 180 255
120 180 255
120 180 255
120 180 255
120 180 255
120 180 255
120 180 255
120 180 255
120 180 255
120 180 255
120 180 255
120 180 255
120 180 255
120 180 255
120 180 255
120 180 255
120 180 255
120 180 255
120 180 255
120 180 255
120 180 255
120 180 255
120 180 255
120 180 255
120 180 255
120 180 255
120 180 255
120 180 255
120 180 255
120 180 255
120 180 255
120 180 255
120 180 255
120 180 255
120 180 255
120 180 255
120 180 255
120 180 255
120 180 255
120 180 255
120 180 255
120 180 255
120 180 255
120 180 255
120 180 255
120 180 255
120 180 255
120 180 255
120 180 255
120 180 255
120 180 255
120 180 255
120 180 255
120 180 255
120 180 255
120 180 255
120 180 255
120 180 255
120 180 255
120 180 255
120 180 255
120 180 255
120 180 255
120 180 255
120 180 255
120 180 255
120 180 255
120 180 255
120 180 255
120 180 255
120 180 255
120 180 255
120 180 255
120 180 255
120 180 255
120 180 255
120 180 255
120 180 255
120 180 255
120 180 255
120 180 255
120 180 255
120 180 255
120 180 255
120 180 255
120 180 255
120 180 255
120 180 255
120 180 255
120 180 255
120 180 255
120 180 255
120 180 255
120 180 255
120 180 255
120 180 255
120 180 255
120 180 255
120 180 255
120 180 255
120 180 255
120 180 255
120 180 255
120 180 255
120 180 255
120 180 255
120 180 255
120 180 255
120 180 255
120 180 255
120 180 255
120 180 255
120 180 255
120 180 255
120 180 255
120 180 255
120 180 255
120 180 255
120 180 255
120 180 255
120 180 255
120 180 255
120 180 255
120 180 255
120 180 255
120 180 255
120 180 255
120 180 255
120 180 255
120 180 255
120 180 255
120 180 255
120 180 255
120 180 255
120 180 255
120 180 255
120 180 255
120 180 255
120 180 255
120 180 255
120 180 255
120 180 255
120 180 255
120 180 255
120 180 255
120 180 255
120 180 255
120 180 255
120 180 255
120 180 255
120 180 255
120 180 255
120 180 255
120 180 255
120 180 255
120 180 255
120 180 255
120 180 255
120 180 255
120 180 255
120 180 255
120 180 255
120 180 255
120 180 255
120 180 255
120 180 255
120 180 255
120 180 255
120 180 255
120 180 255
120 180 255
120 180 255
120 180 255
120 180 255
120 180 255
120 180 255
120 180 255
120 180 255
120 180 255
120 180 255
120 180 255
120 180 255
120 180 255
120 180 255
120 180 255
120 180 255
120 180 255
120 180 255
120 180 255
120 180 255
120 180 255
120 180 255
120 180 255
120 180 255
120 180 255
120 180 255
120 180 255
120 180 255
120 180 255
120 180 255
120 180 255
120 180 255
120 180 255
120 180 255
120 180 255
120 180 255
120 180 255
120 180 255
120 180 255
120 180 255
120 180 255
120 180 255
120 180 255
120 180 255
120 180 255
120 180 255
120 180 255
120 180 255
120 180 255
120 180 255
120 180 255
120 180 255
120 180 255
120 180 255
120 180 255
120 180 255
120 180 255
120 180 255
120 180 255
120 180 255
120 180 255
120 180 255
120 180 255
120 180 255
120 180 255
120 180 255
120 180 255
120 180 255
120 180 255
120 180 255
120 180 255
120 180 255
120 180 255
120 180 255
120 180 255
120 180 255
120 180 255
120 180 255
120 180 255
120 180 255
120 180 255
120 180 255
120 180 255
120 180 255
120 180 255
120 180 255
120 180 255
120 180 255
120 180 255
120 180 255
120 180 255
120 180 255
120 180 255
120 180 255
120 180 255
120 180 255
120 180 255
120 180 255
120 180 255
120 180 255
120 180 255
120 180 255
120 180 255
120 180 255
120 180 255
120 180 255
120 180 255
120 180 255
120 180 255
120 180 255
120 180 255
120 180 255
120 180 255
120 180 255
120 180 255
120 180 255
120 180 255
120 180 255
120 180 255
120 180 255
120 180 255
120 180 255
120 180 255
120 180 255
120 180 255
120 180 255
120 180 255
120 180 255
120 180 255
120 180 255
120 180 255
120 180 255
120 180 255
120 180 255
120 180 255
120 180 255
120 180 255
120 180 255
120 180 255
120 180 255
120 180 255
120 180 255
120 180 255
120 180 255
120 180 255
120 180 255
120 180 255
120 180 255
120 180 255
120 180 255
120 180 255
120 180 255
120 180 255
120 180 255
120 180 255
120 180 255
120 180 255
120 180 255
120 180 255
120 180 255
120 180 255
120 180 255
120 180 255
120 180 255
120 180 255
120 180 255
120 180 255
120 180 255
120 180 255
120 180 255
120 180 255
120 180 255
120 180 255
120 180 255
120 180 255
120 180 255
120 180 255
120 180 255
120 180 255
120 180 255
120 180 255
120 180 255
120 180 255
120 180 255
120 180 255
120 180 255
120 180 255
120 180 255
120 180 255
120 180 255
120 180 255
120 180 255
120 180 255
120 180 255
120 180 255
120 180 255
120 180 255
120 180 255
120 180 255
120 180 255
120 180 255
120 180 255
120 180 255
120 180 255
120 180 255
120 180 255
120 180 255
120 180 255
120 180 255
120 180 255
120 180 255
120 180 255
120 180 255
120 180 255
120 180 255
120 180 255
120 180 255
120 180 255
120 180 255
120 180 255
120 180 255
120 180 255
120 180 255
120 180 255
120 180 255
120 180 255
120 180 255
120 180 255
120 180 255
120 180 255
120 180 255
120 180 255
120 180 255
120 180 255
120 180 255
120 180 255
120 180 255
120 180 255
120 180 255
120 180 255
120 180 255
120 180 255
120 180 255
120 180 255
120 180 255
120 180 255
120 180 255
120 180 255
120 180 255
120 180 255
120 180 255
120 180 255
120 180 255
120 180 255
120 180 255
120 180 255
120 180 255
120 180 255
120 180 255
120 180 255
120 180 255
120 180 255
120 180 255
120 180 255
120 180 255
120 180 255
120 180 255
120 180 255
120 180 255
120 180 255
120 180 255
120 180 255
120 180 255
120 180 255
120 180 255
120 180 255
120 180 255
120 180 255
120 180 255
120 180 255
120 180 255
120 180 255
120 180 255
120 180 255
120 180 255
120 180 255
120 180 255
120 180 255
120 180 255
120 180 255
120 180 255
120 180 255
120 180 255
120 180 255
120 180 255
120 180 255
120 180 255
120 180 255
120 180 255
120 180 255
120 180 255
120 180 255
120 180 255
120 180 255
120 180 255
120 180 255
120 180 255
120 180 255
120 180 255
120 180 255
120 180 255
120 180 255
120 180 255
120 180 255
120 180 255
120 180 255
120 180 255
120 180 255
120 180 255
120 180 255
120 180 255
120 180 255
120 180 255
120 180 255
120 180 255
120 180 255
120 180 255
120 180 255
120 180 255
120 180 255
120 180 255
120 180 255
120 180 255
120 180 255
120 180 255
120 180 255
120 180 255
120 180 255
120 180 255
120 180 255
120 180 255
120 180 255
120 180 255
120 180 255
120 180 255
120 180 255
120 180 255
120 180 255
120 180 255
120 180 255
120 180 255
120 180 255
120 180 255
120 180 255
120 180 255
120 180 255
120 180 255
120 180 255
120 180 255
120 180 255
120 180 255
120 180 255
120 180 255
120 180 255
120 180 255
120 180 255
120 180 255
120 180 255
120 180 255
120 180 255
120 180 255
120 180 255
120 180 255
120 180 255
120 180 255
120 180 255
120 180 255
