P3
64 64
255
245 245 220
245 245 220
245 245 220
245 245 220
245 245 220
245 245 220
245 245 220
245 245 220
245 245 220
245 245 220
245 245 220
245 245 220
245 245 220
245 245 220
245 245 220
245 245 220
245 245 220
245 245 220
245 245 220
245 245 220
245 245 220
245 245 220
245 245 220
245 245 220
245 245 220
245 245 220
245 245 220
245 245 220
245 245 220
245 245 220
245 245 220
245 245 220
245 245 220
245 245 220
245 245 220
245 245 220
245 245 220
245 245 220
245 245 220
245 245 220
245 245 220
245 245 220
245 245 220
245 245 220
245 245 220
245 245 220
245 245 220
245 245 220
245 245 220
245 245 220
245 245 220
245 245 220
245 245 220
245 245 220
245 245 220
245 245 220
245 245 220
245 245 220
245 245 220
245 245 220
245 245 220
245 245 220
245 245 220
245 245 220
245 245 220
245 245 220
245 245 220
245 245 220
245 245 220
245 245 220
245 245 220
245 245 220
245 245 220
245 245 220
245 245 220
245 245 220
245 245 220
245 245 220
245 245 220
245 245 220
245 245 220
245 245 220
245 245 220
245 245 220
245 245 220
245 245 220
245 245 220
245 245 220
245 245 220
245 245 220
245 245 220
245 245 220
245 245 220
245 245 220
245 245 220
245 245 220
245 245 220
245 245 220
245 245 220
245 245 220
245 245 220
245 245 220
245 245 220
245 245 220
245 245 220
245 245 220
245 245 220
245 245 220
245 245 220
245 245 220
245 245 220
245 245 220
245 245 220
245 245 220
245 245 220
245 245 220
245 245 220
245 245 220
245 245 220
245 245 220
245 245 220
245 245 220
245 245 220
245 245 220
245 245 220
245 245 220
245 245 220
245 245 220
245 245 220
245 245 220
245 245 220
245 245 220
245 245 220
245 245 220
245 245 220
245 245 220
245 245 220
245 245 220
245 245 220
245 245 220
245 245 220
245 245 220
245 245 220
245 245 220
245 245 220
245 245 220
245 245 220
245 245 220
245 245 220
245 245 220
245 245 220
245 245 220
245 245 220
245 245 220
245 245 220
245 245 220
245 245 220
245 245 220
245 245 220
245 245 220
245 245 220
245 245 220
245 245 220
245 245 220
245 245 220
245 245 220
245 245 220
245 245 220
245 245 220
245 245 220
245 245 220
245 245 220
245 245 220
245 245 220
245 245 220
245 245 220
245 245 220
245 245 220
245 245 220
245 245 220
245 245 220
245 245 220
245 245 220
245 245 220
245 245 220
245 245 220
245 245 220
245 245 220
245 245 220
245 245 220
245 245 220
245 245 220
245 245 220
245 245 220
245 245 220
245 245 220
245 245 220
245 245 220
245 245 220
245 245 220
245 245 220
245 245 220
245 245 220
245 245 220
245 245 220
245 245 220
245 245 220
245 245 220
245 245 220
245 245 220
245 245 220
245 245 220
245 245 220
245 245 220
245 245 220
245 245 220
245 245 220
245 245 220
245 245 220
245 245 220
245 245 220
245 245 220
245 245 220
245 245 220
245 245 220
245 245 220
245 245 220
245 245 220
245 245 220
245 245 220
245 245 220
245 245 220
245 245 220
245 245 220
245 245 220
245 245 220
245 245 220
245 245 220
245 245 220
245 245 220
245 245 220
245 245 220
245 245 220
245 245 220
245 245 220
245 245 220
245 245 220
245 245 220
245 245 220
245 245 220
245 245 220
245 245 220
245 245 220
245 245 220
245 245 220
245 245 220
245 245 220
245 245 220
245 245 220
245 245 220
245 245 220
245 245 220
245 245 220
245 245 220
245 245 220
245 245 220
245 245 220
245 245 220
245 245 220
245 245 220
245 245 220
245 245 220
245 245 220
245 245 220
245 245 220
245 245 220
245 245 220
245 245 220
245 245 220
245 245 220
245 245 220
245 245 220
245 245 220
245 245 220
245 245 220
245 245 220
245 245 220
245 245 220
245 245 220
245 245 220
245 245 220
245 245 220
245 245 220
245 245 220
245 245 220
245 245 220
245 245 220
245 245 220
245 245 220
245 245 220
245 245 220
245 245 220
245 245 220
245 245 220
245 245 220
245 245 220
245 245 220
245 245 220
245 245 220
245 245 220
245 245 220
245 245 220
245 245 220
245 245 220
245 245 220
245 245 220
245 245 220
245 245 220
245 245 220
245 245 220
245 245 220
245 245 220
245 245 220
245 245 220
245 245 220
245 245 220
245 245 220
245 245 220
245 245 220
245 245 220
245 245 220
245 245 220
245 245 220
245 245 220
245 245 220
245 245 220
245 245 220
245 245 220
245 245 220
245 245 220
245 245 220
245 245 220
245 245 220
245 245 220
245 245 220
245 245 220
245 245 220
245 245 220
245 245 220
245 245 220
245 245 220
245 245 220
245 245 220
245 245 220
245 245 220
245 245 220
245 245 220
245 245 220
245 245 220
245 245 220
245 245 220
245 245 220
245 245 220
245 245 220
245 245 220
245 245 220
245 245 220
245 245 220
245 245 220
245 245 220
245 245 220
245 245 220
245 245 220
245 245 220
245 245 220
245 245 220
245 245 220
245 245 220
245 245 220
245 245 220
245 245 220
245 245 220
245 245 220
245 245 220
245 245 220
245 245 220
245 245 220
245 245 220
245 245 220
245 245 220
245 245 220
245 245 220
245 245 220
245 245 220
245 245 220
245 245 220
245 245 220
245 245 220
245 245 220
245 245 220
245 245 220
245 245 220
245 245 220
245 245 220
245 245 220
245 245 220
245 245 220
245 245 220
245 245 220
245 245 220
245 245 220
245 245 220
245 245 220
245 245 220
245 245 220
245 245 220
245 245 220
245 245 220
245 245 220
245 245 220
245 245 220
245 245 220
245 245 220
245 245 220
245 245 220
245 245 220
245 245 220
245 245 220
245 245 220
245 245 220
245 245 220
245 245 220
245 245 220
245 245 220
245 245 220
245 245 220
245 245 220
245 245 220
245 245 220
245 245 220
245 245 220
245 245 220
245 245 220
245 245 220
245 245 220
245 245 220
245 245 220
245 245 220
245 245 220
245 245 220
245 245 220
245 245 220
245 245 220
245 245 220
245 245 220
245 245 220
245 245 220
245 245 220
245 245 220
245 245 220
245 245 220
245 245 220
245 245 220
245 245 220
245 245 220
245 245 220
245 245 220
245 245 220
245 245 220
245 245 220
245 245 220
245 245 220
245 245 220
245 245 220
245 245 220
245 245 220
245 245 220
245 245 220
245 245 220
245 245 220
245 245 220
245 245 220
245 245 220
245 245 220
245 245 220
245 245 220
245 245 220
245 245 220
245 245 220
245 245 220
245 245 220
245 245 220
245 245 220
245 245 220
245 245 220
245 245 220
245 245 220
245 245 220
245 245 220
245 245 220
245 245 220
245 245 220
245 245 220
245 245 220
245 245 220
245 245 220
245 245 220
245 245 220
245 245 220
245 245 220
245 245 220
245 245 220
245 245 220
245 245 220
245 245 220
245 245 220
245 245 220
245 245 220
245 245 220
245 245 220
245 245 220
245 245 220
245 245 220
245 245 220
245 245 220
245 245 220
245 245 220
245 245 220
245 245 220
245 245 220
245 245 220
245 245 220
245 245 220
245 245 220
245 245 220
245 245 220
245 245 220
245 245 220
245 245 220
245 245 220
245 245 220
245 245 220
245 245 220
245 245 220
245 245 220
245 245 220
245 245 220
245 245 220
245 245 220
245 245 220
245 245 220
245 245 220
245 245 220
245 245 220
245 245 220
245 245 220
245 245 220
245 245 220
245 245 220
245 245 220
245 245 220
245 245 220
245 245 220
245 245 220
245 245 220
245 245 220
245 245 220
245 245 220
245 245 220
245 245 220
245 245 220
245 245 220
245 245 220
245 245 220
245 245 220
245 245 220
245 245 220
245 245 220
245 245 220
245 245 220
245 245 220
245 245 220
245 245 220
245 245 220
245 245 220
245 245 220
245 245 220
245 245 220
245 245 220
245 245 220
245 245 220
245 245 220
245 245 220
245 245 220
245 245 220
245 245 220
245 245 220
245 245 220
245 245 220
245 245 220
245 245 220
245 245 220
245 245 220
245 245 220
245 245 220
245 245 220
245 245 220
245 245 220
245 245 220
245 245 220
245 245 220
245 245 220
245 245 220
245 245 220
245 245 220
245 245 220
245 245 220
245 245 220
245 245 220
245 245 220
245 245 220
245 245 220
245 245 220
245 245 220
245 245 220
245 245 220
245 245 220
245 245 220
245 245 220
245 245 220
245 245 220
245 245 220
245 245 220
245 245 220
245 245 220
245 245 220
245 245 220
245 245 220
245 245 220
245 245 220
245 245 220
245 245 220
245 245 220
245 245 220
245 245 220
245 245 220
245 245 220
245 245 220
245 245 220
245 245 220
245 245 220
245 245 220
245 245 220
245 245 220
245 245 220
245 245 220
245 245 220
245 245 220
245 245 220
245 245 220
245 245 220
245 245 220
245 245 220
245 245 220
245 245 220
245 245 220
245 245 220
245 245 220
245 245 220
245 245 220
245 245 220
245 245 220
245 245 220
245 245 220
245 245 220
245 245 220
245 245 220
245 245 220
245 245 220
245 245 220
245 245 220
245 245 220
245 245 220
245 245 220
245 245 220
245 245 220
245 245 220
245 245 220
245 245 220
245 245 220
245 245 220
245 245 220
245 245 220
245 245 220
245 245 220
245 245 220
245 245 220
245 245 220
245 245 220
245 245 220
245 245 220
245 245 220
245 245 220
245 245 220
245 245 220
245 245 220
245 245 220
245 245 220
245 245 220
245 245 220
245 245 220
245 245 220
245 245 220
245 245 220
245 245 220
245 245 220
245 245 220
245 245 220
245 245 220
245 245 220
245 245 220
245 245 220
245 245 220
245 245 220
245 245 220
245 245 220
245 245 220
245 245 220
245 245 220
245 245 220
245 245 220
245 245 220
245 245 220
245 245 220
245 245 220
245 245 220
245 245 220
245 245 220
245 245 220
245 245 220
245 245 220
245 245 220
245 245 220
245 245 220
245 245 220
245 245 220
245 245 220
245 245 220
245 245 220
245 245 220
245 245 220
245 245 220
245 245 220
245 245 220
245 245 220
245 245 220
245 245 220
245 245 220
245 245 220
245 245 220
245 245 220
245 245 220
245 245 220
245 245 220
245 245 220
245 245 220
245 245 220
245 245 220
245 245 220
245 245 220
245 245 220
245 245 220
245 245 220
245 245 220
245 245 220
245 245 220
245 245 220
245 245 220
245 245 220
245 245 220
245 245 220
245 245 220
245 245 220
245 245 220
245 245 220
245 245 220
245 245 220
245 245 220
245 245 220
245 245 220
245 245 220
245 245 220
245 245 220
245 245 220
245 245 220
245 245 220
245 245 220
245 245 220
245 245 220
245 245 220
245 245 220
245 245 220
245 245 220
245 245 220
245 245 220
245 245 220
245 245 220
245 245 220
245 245 220
245 245 220
245 245 220
245 245 220
245 245 220
245 245 220
245 245 220
245 245 220
245 245 220
245 245 220
245 245 220
245 245 220
245 245 220
245 245 220
245 245 220
245 245 220
245 245 220
245 245 220
245 245 220
245 245 220
245 245 220
245 245 220
245 245 220
245 245 220
245 245 220
245 245 220
245 245 220
245 245 220
245 245 220
245 245 220
245 245 220
245 245 220
245 245 220
245 245 220
245 245 220
245 245 220
245 245 220
245 245 220
245 245 220
245 245 220
245 245 220
245 245 220
245 245 220
245 245 220
245 245 220
245 245 220
245 245 220
245 245 220
245 245 220
245 245 220
245 245 220
245 245 220
245 245 220
245 245 220
245 245 220
245 245 220
245 245 220
245 245 220
245 245 220
245 245 220
245 245 220
245 245 220
245 245 220
245 245 220
245 245 220
245 245 220
245 245 220
245 245 220
245 245 220
245 245 220
245 245 220
245 245 220
245 245 220
245 245 220
245 245 220
245 245 220
245 245 220
245 245 220
245 245 220
245 245 220
245 245 220
245 245 220
245 245 220
245 245 220
245 245 220
245 245 220
245 245 220
245 245 220
245 245 220
245 245 220
245 245 220
245 245 220
245 245 220
245 245 220
245 245 220
245 245 220
245 245 220
245 245 220
245 245 220
245 245 220
245 245 220
245 245 220
245 245 220
245 245 220
245 245 220
245 245 220
245 245 220
245 245 220
245 245 220
245 245 220
245 245 220
245 245 220
245 245 220
245 245 220
245 245 220
245 245 220
245 245 220
245 245 220
245 245 220
245 245 220
245 245 220
245 245 220
245 245 220
245 245 220
245 245 220
245 245 220
245 245 220
245 245 220
245 245 220
245 245 220
245 245 220
245 245 220
245 245 220
245 245 220
245 245 220
245 245 220
245 245 220
245 245 220
245 245 220
245 245 220
245 245 220
245 245 220
245 245 220
245 245 220
245 245 220
245 245 220
245 245 220
245 245 220
245 245 220
245 245 220
245 245 220
245 245 220
245 245 220
245 245 220
245 245 220
245 245 220
245 245 220
245 245 220
245 245 220
245 245 220
245 245 220
245 245 220
245 245 220
245 245 220
245 245 220
245 245 220
245 245 220
245 245 220
245 245 220
245 245 220
245 245 220
245 245 220
245 245 220
245 245 220
245 245 220
245 245 220
245 245 220
245 245 220
245 245 220
245 245 220
245 245 220
245 245 220
245 245 220
245 245 220
245 245 220
245 245 220
245 245 220
245 245 220
245 245 220
245 245 220
245 245 220
245 245 220
245 245 220
245 245 220
245 245 220
245 245 220
245 245 220
245 245 220
245 245 220
245 245 220
245 245 220
245 245 220
245 245 220
245 245 220
245 245 220
245 245 220
245 245 220
245 245 220
245 245 220
245 245 220
245 245 220
245 245 220
245 245 220
245 245 220
245 245 220
245 245 220
245 245 220
245 245 220
245 245 220
245 245 220
245 245 220
245 245 220
245 245 220
245 245 220
245 245 220
245 245 220
245 245 220
245 245 220
245 245 220
245 245 220
245 245 220
245 245 220
245 245 220
245 245 220
245 245 220
245 245 220
245 245 220
245 245 220
245 245 220
245 245 220
245 245 220
245 245 220
245 245 220
245 245 220
245 245 220
245 245 220
245 245 220
245 245 220
245 245 220
245 245 220
245 245 220
245 245 220
245 245 220
245 245 220
245 245 220
245 245 220
245 245 220
245 245 220
245 245 220
245 245 220
245 245 220
245 245 220
245 245 220
245 245 220
245 245 220
245 245 220
245 245 220
245 245 220
245 245 220
245 245 220
245 245 220
245 245 220
245 245 220
245 245 220
245 245 220
245 245 220
245 245 220
245 245 220
245 245 220
245 245 220
245 245 220
245 245 220
245 245 220
245 245 220
245 245 220
245 245 220
245 245 220
245 245 220
245 245 220
245 245 220
245 245 220
245 245 220
245 245 220
245 245 220
245 245 220
245 245 220
245 245 220
245 245 220
245 245 220
245 245 220
245 245 220
245 245 220
245 245 220
245 245 220
245 245 220
245 245 220
245 245 220
245 245 220
245 245 220
245 245 220
245 245 220
245 245 220
245 245 220
245 245 220
245 245 220
245 245 220
245 245 220
245 245 220
245 245 220
245 245 220
245 245 220
245 245 220
245 245 220
245 245 220
245 245 220
245 245 220
245 245 220
245 245 220
245 245 220
245 245 220
245 245 220
245 245 220
245 245 220
245 245 220
245 245 220
245 245 220
245 245 220
245 245 220
245 245 220
245 245 220
245 245 220
245 245 220
245 245 220
245 245 220
245 245 220
245 245 220
245 245 220
245 245 220
245 245 220
245 245 220
245 245 220
245 245 220
245 245 220
245 245 220
245 245 220
245 245 220
245 245 220
245 245 220
245 245 220
245 245 220
245 245 220
245 245 220
245 245 220
245 245 220
245 245 220
245 245 220
245 245 220
245 245 220
245 245 220
245 245 220
245 245 220
245 245 220
245 245 220
245 245 220
245 245 220
245 245 220
245 245 220
245 245 220
245 245 220
245 245 220
245 245 220
245 245 220
245 245 220
245 245 220
245 245 220
245 245 220
245 245 220
245 245 220
245 245 220
245 245 220
245 245 220
245 245 220
245 245 220
245 245 220
245 245 220
245 245 220
245 245 220
245 245 220
245 245 220
245 245 220
245 245 220
245 245 220
245 245 220
245 245 220
245 245 220
245 245 220
245 245 220
245 245 220
245 245 220
245 245 220
245 245 220
245 245 220
245 245 220
245 245 220
245 245 220
245 245 220
245 245 220
245 245 220
245 245 220
245 245 220
245 245 220
245 245 220
245 245 220
245 245 220
245 245 220
245 245 220
245 245 220
245 245 220
245 245 220
245 245 220
245 245 220
245 245 220
245 245 220
245 245 220
245 245 220
245 245 220
245 245 220
245 245 220
245 245 220
245 245 220
245 245 220
245 245 220
245 245 220
245 245 220
245 245 220
245 245 220
245 245 220
245 245 220
245 245 220
245 245 220
245 245 220
245 245 220
245 245 220
245 245 220
245 245 220
245 245 220
245 245 220
245 245 220
245 245 220
245 245 220
245 245 220
245 245 220
245 245 220
245 245 220
245 245 220
245 245 220
245 245 220
245 245 220
245 245 220
245 245 220
245 245 220
245 245 220
245 245 220
245 245 220
245 245 220
245 245 220
245 245 220
245 245 220
245 245 220
245 245 220
245 245 220
245 245 220
245 245 220
245 245 220
245 245 220
245 245 220
245 245 220
245 245 220
245 245 220
245 245 220
245 245 220
245 245 220
245 245 220
245 245 220
245 245 220
245 245 220
245 245 220
245 245 220
245 245 220
245 245 220
245 245 220
245 245 220
245 245 220
245 245 220
245 245 220
245 245 220
245 245 220
245 245 220
245 245 220
245 245 220
245 245 220
245 245 220
245 245 220
245 245 220
245 245 220
245 245 220
245 245 220
245 245 220
245 245 220
245 245 220
245 245 220
245 245 220
245 245 220
245 245 220
245 245 220
245 245 220
245 245 220
245 245 220
245 245 220
245 245 220
245 245 220
245 245 220
245 245 220
245 245 220
245 245 220
245 245 220
245 245 220
245 245 220
245 245 220
245 245 220
245 245 220
245 245 220
245 245 220
245 245 220
245 245 220
245 245 220
245 245 220
245 245 220
245 245 220
245 245 220
245 245 220
245 245 220
245 245 220
245 245 220
245 245 220
245 245 220
245 245 220
245 245 220
245 245 220
245 245 220
245 245 220
245 245 220
245 245 220
245 245 220
245 245 220
245 245 220
245 245 220
245 245 220
245 245 220
245 245 220
245 245 220
245 245 220
245 245 220
245 245 220
245 245 220
245 245 220
245 245 220
245 245 220
245 245 220
245 245 220
245 245 220
245 245 220
245 245 220
245 245 220
245 245 220
245 245 220
245 245 220
245 245 220
245 245 220
245 245 220
245 245 220
245 245 220
245 245 220
245 245 220
245 245 220
245 245 220
245 245 220
245 245 220
245 245 220
245 245 220
245 245 220
245 245 220
245 245 220
245 245 220
245 245 220
245 245 220
245 245 220
245 245 220
245 245 220
245 245 220
245 245 220
245 245 220
245 245 220
245 245 220
245 245 220
245 245 220
245 245 220
245 245 220
245 245 220
245 245 220
245 245 220
245 245 220
245 245 220
245 245 220
245 245 220
245 245 220
245 245 220
245 245 220
245 245 220
245 245 220
245 245 220
245 245 220
245 245 220
245 245 220
245 245 220
245 245 220
245 245 220
245 245 220
245 245 220
245 245 220
245 245 220
245 245 220
245 245 220
245 245 220
245 245 220
245 245 220
245 245 220
245 245 220
245 245 220
245 245 220
245 245 220
245 245 220
245 245 220
245 245 220
245 245 220
245 245 220
245 245 220
245 245 220
245 245 220
245 245 220
245 245 220
245 245 220
245 245 220
245 245 220
245 245 220
245 245 220
245 245 220
245 245 220
245 245 220
245 245 220
245 245 220
245 245 220
245 245 220
245 245 220
245 245 220
245 245 220
245 245 220
245 245 220
245 245 220
245 245 220
245 245 220
245 245 220
245 245 220
245 245 220
245 245 220
245 245 220
245 245 220
245 245 220
245 245 220
245 245 220
245 245 220
245 245 220
245 245 220
245 245 220
245 245 220
245 245 220
245 245 220
245 245 220
245 245 220
245 245 220
245 245 220
245 245 220
245 245 220
245 245 220
245 245 220
245 245 220
245 245 220
245 245 220
245 245 220
245 245 220
245 245 220
245 245 220
245 245 220
245 245 220
245 245 220
245 245 220
245 245 220
245 245 220
245 245 220
245 245 220
245 245 220
245 245 220
245 245 220
245 245 220
245 245 220
245 245 220
245 245 220
245 245 220
245 245 220
245 245 220
245 245 220
245 245 220
245 245 220
245 245 220
245 245 220
245 245 220
245 245 220
245 245 220
245 245 220
245 245 220
245 245 220
245 245 220
245 245 220
245 245 220
245 245 220
245 245 220
245 245 220
245 245 220
245 245 220
245 245 220
245 245 220
245 245 220
245 245 220
245 245 220
245 245 220
245 245 220
245 245 220
245 245 220
245 245 220
245 245 220
245 245 220
245 245 220
245 245 220
245 245 220
245 245 220
245 245 220
245 245 220
245 245 220
245 245 220
245 245 220
245 245 220
245 245 220
245 245 220
245 245 220
245 245 220
245 245 220
245 245 220
245 245 220
245 245 220
245 245 220
245 245 220
245 245 220
245 245 220
245 245 220
245 245 220
245 245 220
245 245 220
245 245 220
245 245 220
245 245 220
245 245 220
245 245 220
245 245 220
245 245 220
245 245 220
245 245 220
245 245 220
245 245 220
245 245 220
245 245 220
245 245 220
245 245 220
245 245 220
245 245 220
245 245 220
245 245 220
245 245 220
245 245 220
245 245 220
245 245 220
245 245 220
245 245 220
245 245 220
245 245 220
245 245 220
245 245 220
245 245 220
245 245 220
245 245 220
245 245 220
245 245 220
245 245 220
245 245 220
245 245 220
245 245 220
245 245 220
245 245 220
245 245 220
245 245 220
245 245 220
245 245 220
245 245 220
245 245 220
245 245 220
245 245 220
245 245 220
245 245 220
245 245 220
245 245 220
245 245 220
245 245 220
245 245 220
245 245 220
245 245 220
245 245 220
245 245 220
245 245 220
245 245 220
245 245 220
245 245 220
245 245 220
245 245 220
245 245 220
245 245 220
245 245 220
245 245 220
245 245 220
245 245 220
245 245 220
245 245 220
245 245 220
245 245 220
245 245 220
245 245 220
245 245 220
245 245 220
245 245 220
245 245 220
245 245 220
245 245 220
245 245 220
245 245 220
245 245 220
245 245 220
245 245 220
245 245 220
245 245 220
245 245 220
245 245 220
245 245 220
245 245 220
245 245 220
245 245 220
245 245 220
245 245 220
245 245 220
245 245 220
245 245 220
245 245 220
245 245 220
245 245 220
245 245 220
245 245 220
245 245 220
245 245 220
245 245 220
245 245 220
245 245 220
245 245 220
245 245 220
245 245 220
245 245 220
245 245 220
245 245 220
245 245 220
245 245 220
245 245 220
245 245 220
245 245 220
245 245 220
245 245 220
245 245 220
245 245 220
245 245 220
245 245 220
245 245 220
245 245 220
245 245 220
245 245 220
245 245 220
245 245 220
245 245 220
245 245 220
245 245 220
245 245 220
245 245 220
245 245 220
245 245 220
245 245 220
245 245 220
245 245 220
245 245 220
245 245 220
245 245 220
245 245 220
245 245 220
245 245 220
245 245 220
245 245 220
245 245 220
245 245 220
245 245 220
245 245 220
245 245 220
245 245 220
245 245 220
245 245 220
245 245 220
245 245 220
245 245 220
245 245 220
245 245 220
245 245 220
245 245 220
245 245 220
245 245 220
245 245 220
245 245 220
245 245 220
245 245 220
245 245 220
245 245 220
245 245 220
245 245 220
245 245 220
245 245 220
245 245 220
245 245 220
245 245 220
245 245 220
245 245 220
245 245 220
245 245 220
245 245 220
245 245 220
245 245 220
245 245 220
245 245 220
245 245 220
245 245 220
245 245 220
245 245 220
245 245 220
245 245 220
245 245 220
245 245 220
245 245 220
245 245 220
245 245 220
245 245 220
245 245 220
245 245 220
245 245 220
245 245 220
245 245 220
245 245 220
245 245 220
245 245 220
245 245 220
245 245 220
245 245 220
245 245 220
245 245 220
245 245 220
245 245 220
245 245 220
245 245 220
245 245 220
245 245 220
245 245 220
245 245 220
245 245 220
245 245 220
245 245 220
245 245 220
245 245 220
245 245 220
245 245 220
245 245 220
245 245 220
245 245 220
245 245 220
245 245 220
245 245 220
245 245 220
245 245 220
245 245 220
245 245 220
245 245 220
245 245 220
245 245 220
245 245 220
245 245 220
245 245 220
245 245 220
245 245 220
245 245 220
245 245 220
245 245 220
245 245 220
245 245 220
245 245 220
245 245 220
245 245 220
245 245 220
245 245 220
245 245 220
245 245 220
245 245 220
245 245 220
245 245 220
245 245 220
245 245 220
245 245 220
245 245 220
245 245 220
245 245 220
245 245 220
245 245 220
245 245 220
245 245 220
245 245 220
245 245 220
245 245 220
245 245 220
245 245 220
245 245 220
245 245 220
245 245 220
245 245 220
245 245 220
245 245 220
245 245 220
245 245 220
245 245 220
245 245 220
245 245 220
245 245 220
245 245 220
245 245 220
245 245 220
245 245 220
245 245 220
245 245 220
245 245 220
245 245 220
245 245 220
245 245 220
245 245 220
245 245 220
245 245 220
245 245 220
245 245 220
245 245 220
245 245 220
245 245 220
245 245 220
245 245 220
245 245 220
245 245 220
245 245 220
245 245 220
245 245 220
245 245 220
245 245 220
245 245 220
245 245 220
245 245 220
245 245 220
245 245 220
245 245 220
245 245 220
245 245 220
245 245 220
245 245 220
245 245 220
245 245 220
245 245 220
245 245 220
245 245 220
245 245 220
245 245 220
245 245 220
245 245 220
245 245 220
245 245 220
245 245 220
245 245 220
245 245 220
245 245 220
245 245 220
245 245 220
245 245 220
245 245 220
245 245 220
245 245 220
245 245 220
245 245 220
245 245 220
245 245 220
245 245 220
245 245 220
245 245 220
245 245 220
245 245 220
245 245 220
245 245 220
245 245 220
245 245 220
245 245 220
245 245 220
245 245 220
245 245 220
245 245 220
245 245 220
245 245 220
245 245 220
245 245 220
245 245 220
245 245 220
245 245 220
245 245 220
245 245 220
245 245 220
245 245 220
245 245 220
245 245 220
245 245 220
245 245 220
245 245 220
245 245 220
245 245 220
245 245 220
245 245 220
245 245 220
245 245 220
245 245 220
245 245 220
245 245 220
245 245 220
245 245 220
245 245 220
245 245 220
245 245 220
245 245 220
245 245 220
245 245 220
245 245 220
245 245 220
245 245 220
245 245 220
245 245 220
245 245 220
245 245 220
245 245 220
245 245 220
245 245 220
245 245 220
245 245 220
245 245 220
245 245 220
245 245 220
245 245 220
245 245 220
245 245 220
245 245 220
245 245 220
245 245 220
245 245 220
245 245 220
245 245 220
245 245 220
245 245 220
245 245 220
245 245 220
245 245 220
245 245 220
245 245 220
245 245 220
245 245 220
245 245 220
245 245 220
245 245 220
245 245 220
245 245 220
245 245 220
245 245 220
245 245 220
245 245 220
245 245 220
245 245 220
245 245 220
245 245 220
245 245 220
245 245 220
245 245 220
245 245 220
245 245 220
245 245 220
245 245 220
245 245 220
245 245 220
245 245 220
245 245 220
245 245 220
245 245 220
245 245 220
245 245 220
245 245 220
245 245 220
245 245 220
245 245 220
245 245 220
245 245 220
245 245 220
245 245 220
245 245 220
245 245 220
245 245 220
245 245 220
245 245 220
245 245 220
245 245 220
245 245 220
245 245 220
245 245 220
245 245 220
245 245 220
245 245 220
245 245 220
245 245 220
245 245 220
245 245 220
245 245 220
245 245 220
245 245 220
245 245 220
245 245 220
245 245 220
245 245 220
245 245 220
245 245 220
245 245 220
245 245 220
245 245 220
245 245 220
245 245 220
245 245 220
245 245 220
245 245 220
245 245 220
245 245 220
245 245 220
245 245 220
245 245 220
245 245 220
245 245 220
245 245 220
245 245 220
245 245 220
245 245 220
245 245 220
245 245 220
245 245 220
245 245 220
245 245 220
245 245 220
245 245 220
245 245 220
245 245 220
245 245 220
245 245 220
245 245 220
245 245 220
245 245 220
245 245 220
245 245 220
245 245 220
245 245 220
245 245 220
245 245 220
245 245 220
245 245 220
245 245 220
245 245 220
245 245 220
245 245 220
245 245 220
245 245 220
245 245 220
245 245 220
245 245 220
245 245 220
245 245 220
245 245 220
245 245 220
245 245 220
245 245 220
245 245 220
245 245 220
245 245 220
245 245 220
245 245 220
245 245 220
245 245 220
245 245 220
245 245 220
245 245 220
245 245 220
245 245 220
245 245 220
245 245 220
245 245 220
245 245 220
245 245 220
245 245 220
245 245 220
245 245 220
245 245 220
245 245 220
245 245 220
245 245 220
245 245 220
245 245 220
245 245 220
245 245 220
245 245 220
245 245 220
245 245 220
245 245 220
245 245 220
245 245 220
245 245 220
245 245 220
245 245 220
245 245 220
245 245 220
245 245 220
245 245 220
245 245 220
245 245 220
245 245 220
245 245 220
245 245 220
245 245 220
245 245 220
245 245 220
245 245 220
245 245 220
245 245 220
245 245 220
245 245 220
245 245 220
245 245 220
245 245 220
245 245 220
245 245 220
245 245 220
245 245 220
245 245 220
245 245 220
245 245 220
245 245 220
245 245 220
245 245 220
245 245 220
245 245 220
245 245 220
245 245 220
245 245 220
245 245 220
245 245 220
245 245 220
245 245 220
245 245 220
245 245 220
245 245 220
245 245 220
245 245 220
245 245 220
245 245 220
245 245 220
245 245 220
245 245 220
245 245 220
245 245 220
245 245 220
245 245 220
245 245 220
245 245 220
245 245 220
245 245 220
245 245 220
245 245 220
245 245 220
245 245 220
245 245 220
245 245 220
245 245 220
245 245 220
245 245 220
245 245 220
245 245 220
245 245 220
245 245 220
245 245 220
245 245 220
245 245 220
245 245 220
245 245 220
245 245 220
245 245 220
245 245 220
245 245 220
245 245 220
245 245 220
245 245 220
245 245 220
245 245 220
245 245 220
245 245 220
245 245 220
245 245 220
245 245 220
245 245 220
245 245 220
245 245 220
245 245 220
245 245 220
245 245 220
245 245 220
245 245 220
245 245 220
245 245 220
245 245 220
245 245 220
245 245 220
245 245 220
245 245 220
245 245 220
245 245 220
245 245 220
245 245 220
245 245 220
245 245 220
245 245 220
245 245 220
245 245 220
245 245 220
245 245 220
245 245 220
245 245 220
245 245 220
245 245 220
245 245 220
245 245 220
245 245 220
245 245 220
245 245 220
245 245 220
245 245 220
245 245 220
245 245 220
245 245 220
245 245 220
245 245 220
245 245 220
245 245 220
245 245 220
245 245 220
245 245 220
245 245 220
245 245 220
245 245 220
245 245 220
245 245 220
245 245 220
245 245 220
245 245 220
245 245 220
245 245 220
245 245 220
245 245 220
245 245 220
245 245 220
245 245 220
245 245 220
245 245 220
245 245 220
245 245 220
245 245 220
245 245 220
245 245 220
245 245 220
245 245 220
245 245 220
245 245 220
245 245 220
245 245 220
245 245 220
245 245 220
245 245 220
245 245 220
245 245 220
245 245 220
245 245 220
245 245 220
245 245 220
245 245 220
245 245 220
245 245 220
245 245 220
245 245 220
245 245 220
245 245 220
245 245 220
245 245 220
245 245 220
245 245 220
245 245 220
245 245 220
245 245 220
245 245 220
245 245 220
245 245 220
245 245 220
245 245 220
245 245 220
245 245 220
245 245 220
245 245 220
245 245 220
245 245 220
245 245 220
245 245 220
245 245 220
245 245 220
245 245 220
245 245 220
245 245 220
245 245 220
245 245 220
245 245 220
245 245 220
245 245 220
245 245 220
245 245 220
245 245 220
245 245 220
245 245 220
245 245 220
245 245 220
245 245 220
245 245 220
245 245 220
245 245 220
245 245 220
245 245 220
245 245 220
245 245 220
245 245 220
245 245 220
245 245 220
245 245 220
245 245 220
245 245 220
245 245 220
245 245 220
245 245 220
245 245 220
245 245 220
245 245 220
245 245 220
245 245 220
245 245 220
245 245 220
245 245 220
245 245 220
245 245 220
245 245 220
245 245 220
245 245 220
245 245 220
245 245 220
245 245 220
245 245 220
245 245 220
245 245 220
245 245 220
245 245 220
245 245 220
245 245 220
245 245 220
245 245 220
245 245 220
245 245 220
245 245 220
245 245 220
245 245 220
245 245 220
245 245 220
245 245 220
245 245 220
245 245 220
245 245 220
245 245 220
245 245 220
245 245 220
245 245 220
245 245 220
245 245 220
245 245 220
245 245 220
245 245 220
245 245 220
245 245 220
245 245 220
245 245 220
245 245 220
245 245 220
245 245 220
245 245 220
245 245 220
245 245 220
245 245 220
245 245 220
245 245 220
245 245 220
245 245 220
245 245 220
245 245 220
245 245 220
245 245 220
245 245 220
245 245 220
245 245 220
245 245 220
245 245 220
245 245 220
245 245 220
245 245 220
245 245 220
245 245 220
245 245 220
245 245 220
245 245 220
245 245 220
245 245 220
245 245 220
245 245 220
245 245 220
245 245 220
245 245 220
245 245 220
245 245 220
245 245 220
245 245 220
245 245 220
245 245 220
245 245 220
245 245 220
245 245 220
245 245 220
245 245 220
245 245 220
245 245 220
245 245 220
245 245 220
245 245 220
245 245 220
245 245 220
245 245 220
245 245 220
245 245 220
245 245 220
245 245 220
245 245 220
245 245 220
245 245 220
245 245 220
245 245 220
245 245 220
245 245 220
245 245 220
245 245 220
245 245 220
245 245 220
245 245 220
245 245 220
245 245 220
245 245 220
245 245 220
245 245 220
245 245 220
245 245 220
245 245 220
245 245 220
245 245 220
245 245 220
245 245 220
245 245 220
245 245 220
245 245 220
245 245 220
245 245 220
245 245 220
245 245 220
245 245 220
245 245 220
245 245 220
245 245 220
245 245 220
245 245 220
245 245 220
245 245 220
245 245 220
245 245 220
245 245 220
245 245 220
245 245 220
245 245 220
245 245 220
245 245 220
245 245 220
245 245 220
245 245 220
245 245 220
245 245 220
245 245 220
245 245 220
245 245 220
245 245 220
245 245 220
245 245 220
245 245 220
245 245 220
245 245 220
245 245 220
245 245 220
245 245 220
245 245 220
245 245 220
245 245 220
245 245 220
245 245 220
245 245 220
245 245 220
245 245 220
245 245 220
245 245 220
245 245 220
245 245 220
245 245 220
245 245 220
245 245 220
245 245 220
245 245 220
245 245 220
245 245 220
245 245 220
245 245 220
245 245 220
245 245 220
245 245 220
245 245 220
245 245 220
245 245 220
245 245 220
245 245 220
245 245 220
245 245 220
245 245 220
245 245 220
245 245 220
245 245 220
245 245 220
245 245 220
245 245 220
245 245 220
245 245 220
245 245 220
245 245 220
245 245 220
245 245 220
245 245 220
245 245 220
245 245 220
245 245 220
245 245 220
245 245 220
245 245 220
245 245 220
245 245 220
245 245 220
245 245 220
245 245 220
245 245 220
245 245 220
245 245 220
245 245 220
245 245 220
245 245 220
245 245 220
245 245 220
245 245 220
245 245 220
245 245 220
245 245 220
245 245 220
245 245 220
245 245 220
245 245 220
245 245 220
245 245 220
245 245 220
245 245 220
245 245 220
245 245 220
245 245 220
245 245 220
245 245 220
245 245 220
245 245 220
245 245 220
245 245 220
245 245 220
245 245 220
245 245 220
245 245 220
245 245 220
245 245 220
245 245 220
245 245 220
245 245 220
245 245 220
245 245 220
245 245 220
245 245 220
245 245 220
245 245 220
245 245 220
245 245 220
245 245 220
245 245 220
245 245 220
245 245 220
245 245 220
245 245 220
245 245 220
245 245 220
245 245 220
245 245 220
245 245 220
245 245 220
245 245 220
245 245 220
245 245 220
245 245 220
245 245 220
245 245 220
245 245 220
245 245 220
245 245 220
245 245 220
245 245 220
245 245 220
245 245 220
245 245 220
245 245 220
245 245 220
245 245 220
245 245 220
245 245 220
245 245 220
245 245 220
245 245 220
245 245 220
245 245 220
245 245 220
245 245 220
245 245 220
245 245 220
245 245 220
245 245 220
245 245 220
245 245 220
245 245 220
245 245 220
245 245 220
245 245 220
245 245 220
245 245 220
245 245 220
245 245 220
245 245 220
245 245 220
245 245 220
245 245 220
245 245 220
245 245 220
245 245 220
245 245 220
245 245 220
245 245 220
245 245 220
245 245 220
245 245 220
245 245 220
245 245 220
245 245 220
245 245 220
245 245 220
245 245 220
245 245 220
245 245 220
245 245 220
245 245 220
245 245 220
245 245 220
245 245 220
245 245 220
245 245 220
245 245 220
245 245 220
245 245 220
245 245 220
245 245 220
245 245 220
245 245 220
245 245 220
245 245 220
245 245 220
245 245 220
245 245 220
245 245 220
245 245 220
245 245 220
245 245 220
245 245 220
245 245 220
245 245 220
245 245 220
245 245 220
245 245 220
245 245 220
245 245 220
245 245 220
245 245 220
245 245 220
245 245 220
245 245 220
245 245 220
245 245 220
245 245 220
245 245 220
245 245 220
245 245 220
245 245 220
245 245 220
245 245 220
245 245 220
245 245 220
245 245 220
245 245 220
245 245 220
245 245 220
245 245 220
245 245 220
245 245 220
245 245 220
245 245 220
245 245 220
245 245 220
245 245 220
245 245 220
245 245 220
245 245 220
245 245 220
245 245 220
245 245 220
245 245 220
245 245 220
245 245 220
245 245 220
245 245 220
245 245 220
245 245 220
245 245 220
245 245 220
245 245 220
245 245 220
245 245 220
245 245 220
245 245 220
245 245 220
245 245 220
245 245 220
245 245 220
245 245 220
245 245 220
245 245 220
245 245 220
245 245 220
245 245 220
245 245 220
245 245 220
245 245 220
245 245 220
245 245 220
245 245 220
245 245 220
245 245 220
245 245 220
245 245 220
245 245 220
245 245 220
245 245 220
245 245 220
245 245 220
245 245 220
245 245 220
245 245 220
245 245 220
245 245 220
245 245 220
245 245 220
245 245 220
245 245 220
245 245 220
245 245 220
245 245 220
245 245 220
245 245 220
245 245 220
245 245 220
245 245 220
245 245 220
245 245 220
245 245 220
245 245 220
245 245 220
245 245 220
245 245 220
245 245 220
245 245 220
245 245 220
245 245 220
245 245 220
245 245 220
245 245 220
245 245 220
245 245 220
245 245 220
245 245 220
245 245 220
245 245 220
245 245 220
245 245 220
245 245 220
245 245 220
245 245 220
245 245 220
245 245 220
245 245 220
245 245 220
245 245 220
245 245 220
245 245 220
245 245 220
245 245 220
245 245 220
245 245 220
245 245 220
245 245 220
245 245 220
245 245 220
245 245 220
245 245 220
245 245 220
245 245 220
245 245 220
245 245 220
245 245 220
245 245 220
245 245 220
245 245 220
245 245 220
245 245 220
245 245 220
245 245 220
245 245 220
245 245 220
245 245 220
245 245 220
245 245 220
245 245 220
245 245 220
245 245 220
245 245 220
245 245 220
245 245 220
245 245 220
245 245 220
245 245 220
245 245 220
245 245 220
245 245 220
245 245 220
245 245 220
245 245 220
245 245 220
245 245 220
245 245 220
245 245 220
245 245 220
245 245 220
245 245 220
245 245 220
245 245 220
245 245 220
245 245 220
245 245 220
245 245 220
245 245 220
245 245 220
245 245 220
245 245 220
245 245 220
245 245 220
245 245 220
245 245 220
245 245 220
245 245 220
245 245 220
245 245 220
245 245 220
245 245 220
245 245 220
245 245 220
245 245 220
245 245 220
245 245 220
245 245 220
245 245 220
245 245 220
245 245 220
245 245 220
245 245 220
245 245 220
245 245 220
245 245 220
245 245 220
245 245 220
245 245 220
245 245 220
245 245 220
245 245 220
245 245 220
245 245 220
245 245 220
245 245 220
245 245 220
245 245 220
245 245 220
245 245 220
245 245 220
245 245 220
245 245 220
245 245 220
245 245 220
245 245 220
245 245 220
245 245 220
245 245 220
245 245 220
245 245 220
245 245 220
245 245 220
245 245 220
245 245 220
245 245 220
245 245 220
245 245 220
245 245 220
245 245 220
245 245 220
245 245 220
245 245 220
245 245 220
245 245 220
245 245 220
245 245 220
245 245 220
245 245 220
245 245 220
245 245 220
245 245 220
245 245 220
245 245 220
245 245 220
245 245 220
245 245 220
245 245 220
245 245 220
245 245 220
245 245 220
245 245 220
245 245 220
245 245 220
245 245 220
245 245 220
245 245 220
245 245 220
245 245 220
245 245 220
245 245 220
245 245 220
245 245 220
245 245 220
245 245 220
245 245 220
245 245 220
245 245 220
245 245 220
245 245 220
245 245 220
245 245 220
245 245 220
245 245 220
245 245 220
245 245 220
245 245 220
245 245 220
245 245 220
245 245 220
245 245 220
245 245 220
245 245 220
245 245 220
245 245 220
245 245 220
245 245 220
245 245 220
245 245 220
245 245 220
245 245 220
245 245 220
245 245 220
245 245 220
245 245 220
245 245 220
245 245 220
245 245 220
245 245 220
245 245 220
245 245 220
245 245 220
245 245 220
245 245 220
245 245 220
245 245 220
245 245 220
245 245 220
245 245 220
245 245 220
245 245 220
245 245 220
245 245 220
245 245 220
245 245 220
245 245 220
245 245 220
245 245 220
245 245 220
245 245 220
245 245 220
245 245 220
245 245 220
245 245 220
245 245 220
245 245 220
245 245 220
245 245 220
245 245 220
245 245 220
245 245 220
245 245 220
245 245 220
245 245 220
245 245 220
245 245 220
245 245 220
245 245 220
245 245 220
245 245 220
245 245 220
245 245 220
245 245 220
245 245 220
245 245 220
245 245 220
245 245 220
245 245 220
245 245 220
245 245 220
245 245 220
245 245 220
245 245 220
245 245 220
245 245 220
245 245 220
245 245 220
245 245 220
245 245 220
245 245 220
245 245 220
245 245 220
245 245 220
245 245 220
245 245 220
245 245 220
245 245 220
245 245 220
245 245 220
245 245 220
245 245 220
245 245 220
245 245 220
245 245 220
245 245 220
245 245 220
245 245 220
245 245 220
245 245 220
245 245 220
245 245 220
245 245 220
245 245 220
245 245 220
245 245 220
245 245 220
245 245 220
245 245 220
245 245 220
245 245 220
245 245 220
245 245 220
245 245 220
245 245 220
245 245 220
245 245 220
245 245 220
245 245 220
245 245 220
245 245 220
245 245 220
245 245 220
245 245 220
245 245 220
245 245 220
245 245 220
245 245 220
245 245 220
245 245 220
245 245 220
245 245 220
245 245 220
245 245 220
245 245 220
245 245 220
245 245 220
245 245 220
245 245 220
245 245 220
245 245 220
245 245 220
245 245 220
245 245 220
245 245 220
245 245 220
245 245 220
245 245 220
245 245 220
245 245 220
245 245 220
245 245 220
245 245 220
245 245 220
245 245 220
245 245 220
245 245 220
245 245 220
245 245 220
245 245 220
245 245 220
245 245 220
245 245 220
245 245 220
245 245 220
245 245 220
245 245 220
245 245 220
245 245 220
245 245 220
245 245 220
245 245 220
245 245 220
245 245 220
245 245 220
245 245 220
245 245 220
245 245 220
245 245 220
245 245 220
245 245 220
245 245 220
245 245 220
245 245 220
245 245 220
245 245 220
245 245 220
245 245 220
245 245 220
245 245 220
245 245 220
245 245 220
245 245 220
245 245 220
245 245 220
245 245 220
245 245 220
245 245 220
245 245 220
245 245 220
245 245 220
245 245 220
245 245 220
245 245 220
245 245 220
245 245 220
245 245 220
245 245 220
245 245 220
245 245 220
245 245 220
245 245 220
245 245 220
245 245 220
245 245 220
245 245 220
245 245 220
245 245 220
245 245 220
245 245 220
245 245 220
245 245 220
245 245 220
245 245 220
245 245 220
245 245 220
245 245 220
245 245 220
245 245 220
245 245 220
245 245 220
245 245 220
245 245 220
245 245 220
245 245 220
245 245 220
245 245 220
245 245 220
245 245 220
245 245 220
245 245 220
245 245 220
245 245 220
245 245 220
245 245 220
245 245 220
245 245 220
245 245 220
245 245 220
245 245 220
245 245 220
245 245 220
245 245 220
245 245 220
245 245 220
245 245 220
245 245 220
245 245 220
245 245 220
245 245 220
245 245 220
245 245 220
245 245 220
245 245 220
245 245 220
245 245 220
245 245 220
245 245 220
245 245 220
245 245 220
245 245 220
245 245 220
245 245 220
245 245 220
245 245 220
245 245 220
245 245 220
245 245 220
245 245 220
245 245 220
245 245 220
245 245 220
245 245 220
245 245 220
245 245 220
245 245 220
245 245 220
245 245 220
245 245 220
245 245 220
245 245 220
245 245 220
245 245 220
245 245 220
245 245 220
245 245 220
245 245 220
245 245 220
245 245 220
245 245 220
245 245 220
245 245 220
245 245 220
245 245 220
245 245 220
245 245 220
245 245 220
245 245 220
245 245 220
245 245 220
245 245 220
245 245 220
245 245 220
245 245 220
245 245 220
245 245 220
245 245 220
245 245 220
245 245 220
245 245 220
245 245 220
245 245 220
245 245 220
245 245 220
245 245 220
245 245 220
245 245 220
245 245 220
245 245 220
245 245 220
245 245 220
245 245 220
245 245 220
245 245 220
245 245 220
245 245 220
245 245 220
245 245 220
245 245 220
245 245 220
245 245 220
245 245 220
245 245 220
245 245 220
245 245 220
245 245 220
245 245 220
245 245 220
245 245 220
245 245 220
245 245 220
245 245 220
245 245 220
245 245 220
245 245 220
245 245 220
245 245 220
245 245 220
245 245 220
245 245 220
245 245 220
245 245 220
245 245 220
245 245 220
245 245 220
245 245 220
245 245 220
245 245 220
245 245 220
245 245 220
245 245 220
245 245 220
245 245 220
245 245 220
245 245 220
245 245 220
245 245 220
245 245 220
245 245 220
245 245 220
245 245 220
245 245 220
245 245 220
245 245 220
245 245 220
245 245 220
245 245 220
245 245 220
245 245 220
245 245 220
245 245 220
245 245 220
245 245 220
245 245 220
245 245 220
245 245 220
245 245 220
245 245 220
245 245 220
245 245 220
245 245 220
245 245 220
245 245 220
245 245 220
245 245 220
245 245 220
245 245 220
245 245 220
245 245 220
245 245 220
245 245 220
245 245 220
245 245 220
245 245 220
245 245 220
245 245 220
245 245 220
245 245 220
245 245 220
245 245 220
245 245 220
245 245 220
245 245 220
245 245 220
245 245 220
245 245 220
245 245 220
245 245 220
245 245 220
245 245 220
245 245 220
245 245 220
245 245 220
245 245 220
245 245 220
245 245 220
245 245 220
245 245 220
245 245 220
245 245 220
245 245 220
245 245 220
245 245 220
245 245 220
245 245 220
245 245 220
245 245 220
245 245 220
245 245 220
245 245 220
245 245 220
245 245 220
245 245 220
245 245 220
245 245 220
245 245 220
245 245 220
245 245 220
245 245 220
245 245 220
245 245 220
245 245 220
245 245 220
245 245 220
245 245 220
245 245 220
245 245 220
245 245 220
245 245 220
245 245 220
245 245 220
245 245 220
245 245 220
245 245 220
245 245 220
245 245 220
245 245 220
245 245 220
245 245 220
245 245 220
245 245 220
245 245 220
245 245 220
245 245 220
245 245 220
245 245 220
245 245 220
245 245 220
245 245 220
245 245 220
245 245 220
245 245 220
245 245 220
245 245 220
245 245 220
245 245 220
245 245 220
245 245 220
245 245 220
245 245 220
245 245 220
245 245 220
245 245 220
245 245 220
245 245 220
245 245 220
245 245 220
245 245 220
245 245 220
245 245 220
245 245 220
245 245 220
245 245 220
245 245 220
245 245 220
245 245 220
245 245 220
245 245 220
245 245 220
245 245 220
245 245 220
245 245 220
245 245 220
245 245 220
245 245 220
245 245 220
245 245 220
245 245 220
245 245 220
245 245 220
245 245 220
245 245 220
245 245 220
245 245 220
245 245 220
245 245 220
245 245 220
245 245 220
245 245 220
245 245 220
245 245 220
245 245 220
245 245 220
245 245 220
245 245 220
245 245 220
245 245 220
245 245 220
245 245 220
245 245 220
245 245 220
245 245 220
245 245 220
245 245 220
245 245 220
245 245 220
245 245 220
245 245 220
245 245 220
245 245 220
245 245 220
245 245 220
245 245 220
245 245 220
245 245 220
245 245 220
245 245 220
245 245 220
245 245 220
245 245 220
245 245 220
245 245 220
245 245 220
245 245 220
245 245 220
245 245 220
245 245 220
245 245 220
245 245 220
245 245 220
245 245 220
245 245 220
245 245 220
245 245 220
245 245 220
245 245 220
245 245 220
245 245 220
245 245 220
245 245 220
245 245 220
245 245 220
245 245 220
245 245 220
245 245 220
245 245 220
245 245 220
245 245 220
245 245 220
245 245 220
245 245 220
245 245 220
245 245 220
245 245 220
245 245 220
245 245 220
245 245 220
245 245 220
245 245 220
245 245 220
245 245 220
245 245 220
245 245 220
245 245 220
245 245 220
245 245 220
245 245 220
245 245 220
245 245 220
245 245 220
245 245 220
245 245 220
245 245 220
245 245 220
245 245 220
245 245 220
245 245 220
245 245 220
245 245 220
245 245 220
245 245 220
245 245 220
245 245 220
245 245 220
245 245 220
245 245 220
245 245 220
245 245 220
245 245 220
245 245 220
245 245 220
245 245 220
245 245 220
245 245 220
245 245 220
245 245 220
245 245 220
245 245 220
245 245 220
245 245 220
245 245 220
245 245 220
245 245 220
245 245 220
245 245 220
245 245 220
245 245 220
245 245 220
245 245 220
245 245 220
245 245 220
245 245 220
245 245 220
245 245 220
245 245 220
245 245 220
245 245 220
245 245 220
245 245 220
245 245 220
245 245 220
245 245 220
245 245 220
245 245 220
245 245 220
245 245 220
245 245 220
245 245 220
245 245 220
245 245 220
245 245 220
245 245 220
245 245 220
245 245 220
245 245 220
245 245 220
245 245 220
245 245 220
245 245 220
245 245 220
245 245 220
245 245 220
245 245 220
245 245 220
245 245 220
245 245 220
245 245 220
245 245 220
245 245 220
245 245 220
245 245 220
245 245 220
245 245 220
245 245 220
245 245 220
245 245 220
245 245 220
245 245 220
245 245 220
245 245 220
245 245 220
245 245 220
245 245 220
245 245 220
245 245 220
245 245 220
245 245 220
245 245 220
245 245 220
245 245 220
245 245 220
245 245 220
245 245 220
245 245 220
245 245 220
245 245 220
245 245 220
245 245 220
245 245 220
245 245 220
245 245 220
245 245 220
245 245 220
245 245 220
245 245 220
245 245 220
245 245 220
245 245 220
245 245 220
245 245 220
245 245 220
245 245 220
245 245 220
245 245 220
245 245 220
245 245 220
245 245 220
245 245 220
245 245 220
245 245 220
245 245 220
245 245 220
245 245 220
245 245 220
245 245 220
245 245 220
245 245 220
245 245 220
245 245 220
245 245 220
245 245 220
245 245 220
245 245 220
245 245 220
245 245 220
245 245 220
245 245 220
245 245 220
245 245 220
245 245 220
245 245 220
245 245 220
245 245 220
245 245 220
245 245 220
245 245 220
245 245 220
245 245 220
245 245 220
245 245 220
245 245 220
245 245 220
245 245 220
245 245 220
245 245 220
245 245 220
245 245 220
245 245 220
245 245 220
245 245 220
245 245 220
245 245 220
245 245 220
245 245 220
245 245 220
245 245 220
245 245 220
245 245 220
245 245 220
245 245 220
245 245 220
245 245 220
245 245 220
245 245 220
245 245 220
245 245 220
245 245 220
245 245 220
245 245 220
245 245 220
245 245 220
245 245 220
245 245 220
245 245 220
245 245 220
245 245 220
245 245 220
245 245 220
245 245 220
245 245 220
245 245 220
245 245 220
245 245 220
245 245 220
245 245 220
245 245 220
245 245 220
245 245 220
245 245 220
245 245 220
245 245 220
245 245 220
245 245 220
245 245 220
245 245 220
245 245 220
245 245 220
245 245 220
245 245 220
245 245 220
245 245 220
245 245 220
245 245 220
245 245 220
245 245 220
245 245 220
245 245 220
245 245 220
245 245 220
245 245 220
245 245 220
245 245 220
245 245 220
245 245 220
245 245 220
245 245 220
245 245 220
245 245 220
245 245 220
245 245 220
245 245 220
245 245 220
245 245 220
245 245 220
245 245 220
245 245 220
245 245 220
245 245 220
245 245 220
245 245 220
245 245 220
245 245 220
245 245 220
245 245 220
245 245 220
245 245 220
245 245 220
245 245 220
245 245 220
245 245 220
245 245 220
245 245 220
245 245 220
245 245 220
245 245 220
245 245 220
245 245 220
245 245 220
245 245 220
245 245 220
245 245 220
245 245 220
245 245 220
245 245 220
245 245 220
245 245 220
245 245 220
245 245 220
245 245 220
245 245 220
245 245 220
245 245 220
245 245 220
245 245 220
245 245 220
245 245 220
245 245 220
245 245 220
245 245 220
245 245 220
245 245 220
245 245 220
245 245 220
245 245 220
245 245 220
245 245 220
245 245 220
245 245 220
245 245 220
245 245 220
245 245 220
245 245 220
245 245 220
245 245 220
245 245 220
245 245 220
245 245 220
245 245 220
245 245 220
245 245 220
245 245 220
245 245 220
245 245 220
245 245 220
245 245 220
245 245 220
245 245 220
245 245 220
245 245 220
245 245 220
245 245 220
245 245 220
245 245 220
245 245 220
245 245 220
245 245 220
245 245 220
245 245 220
245 245 220
245 245 220
245 245 220
245 245 220
245 245 220
245 245 220
245 245 220
245 245 220
245 245 220
245 245 220
245 245 220
245 245 220
245 245 220
245 245 220
245 245 220
245 245 220
245 245 220
245 245 220
245 245 220
245 245 220
245 245 220
245 245 220
245 245 220
245 245 220
245 245 220
245 245 220
245 245 220
245 245 220
245 245 220
245 245 220
245 245 220
245 245 220
245 245 220
245 245 220
245 245 220
245 245 220
245 245 220
245 245 220
245 245 220
245 245 220
245 245 220
245 245 220
245 245 220
245 245 220
245 245 220
245 245 220
245 245 220
245 245 220
245 245 220
245 245 220
245 245 220
245 245 220
245 245 220
245 245 220
245 245 220
245 245 220
245 245 220
245 245 220
245 245 220
245 245 220
245 245 220
245 245 220
245 245 220
245 245 220
245 245 220
245 245 220
