P3
64 64
255
255 80 80
255 80 80
255 80 80
255 80 80
255 80 80
255 80 80
255 80 80
255 80 80
255 80 80
255 80 80
255 80 80
255 80 80
255 80 80
255 80 80
255 80 80
255 80 80
255 80 80
255 80 80
255 80 80
255 80 80
255 80 80
255 80 80
255 80 80
255 80 80
255 80 80
255 80 80
255 80 80
255 80 80
255 80 80
255 80 80
255 80 80
255 80 80
255 80 80
255 80 80
255 80 80
255 80 80
255 80 80
255 80 80
255 80 80
255 80 80
255 80 80
255 80 80
255 80 80
255 80 80
255 80 80
255 80 80
255 80 80
255 80 80
255 80 80
255 80 80
255 80 80
255 80 80
255 80 80
255 80 80
255 80 80
255 80 80
255 80 80
255 80 80
255 80 80
255 80 80
255 80 80
255 80 80
255 80 80
255 80 80
255 80 80
255 80 80
255 80 80
255 80 80
255 80 80
255 80 80
255 80 80
255 80 80
255 80 80
255 80 80
255 80 80
255 80 80
255 80 80
255 80 80
255 80 80
255 80 80
255 80 80
255 80 80
255 80 80
255 80 80
255 80 80
255 80 80
255 80 80
255 80 80
255 80 80
255 80 80
255 80 80
255 80 80
255 80 80
255 80 80
255 80 80
255 80 80
255 80 80
255 80 80
255 80 80
255 80 80
255 80 80
255 80 80
255 80 80
255 80 80
255 80 80
255 80 80
255 80 80
255 80 80
255 80 80
255 80 80
255 80 80
255 80 80
255 80 80
255 80 80
255 80 80
255 80 80
255 80 80
255 80 80
255 80 80
255 80 80
255 80 80
255 80 80
255 80 80
255 80 80
255 80 80
255 80 80
255 80 80
255 80 80
255 80 80
255 80 80
255 80 80
255 80 80
255 80 80
255 80 80
255 80 80
255 80 80
255 80 80
255 80 80
255 80 80
255 80 80
255 80 80
255 80 80
255 80 80
255 80 80
255 80 80
255 80 80
255 80 80
255 80 80
255 80 80
255 80 80
255 80 80
255 80 80
255 80 80
255 80 80
255 80 80
255 80 80
255 80 80
255 80 80
255 80 80
255 80 80
255 80 80
255 80 80
255 80 80
255 80 80
255 80 80
255 80 80
255 80 80
255 80 80
255 80 80
255 80 80
255 80 80
255 80 80
255 80 80
255 80 80
255 80 80
255 80 80
255 80 80
255 80 80
255 80 80
255 80 80
255 80 80
255 80 80
255 80 80
255 80 80
255 80 80
255 80 80
255 80 80
255 80 80
255 80 80
255 80 80
255 80 80
255 80 80
255 80 80
255 80 80
255 80 80
255 80 80
255 80 80
255 80 80
255 80 80
255 80 80
255 80 80
255 80 80
255 80 80
255 80 80
255 80 80
255 80 80
255 80 80
255 80 80
255 80 80
255 80 80
255 80 80
255 80 80
255 80 80
255 80 80
255 80 80
255 80 80
255 80 80
255 80 80
255 80 80
255 80 80
255 80 80
255 80 80
255 80 80
255 80 80
255 80 80
255 80 80
255 80 80
255 80 80
255 80 80
255 80 80
255 80 80
255 80 80
255 80 80
255 80 80
255 80 80
255 80 80
255 80 80
255 80 80
255 80 80
255 80 80
255 80 80
255 80 80
255 80 80
255 80 80
255 80 80
255 80 80
255 80 80
255 80 80
255 80 80
255 80 80
255 80 80
255 80 80
255 80 80
255 80 80
255 80 80
255 80 80
255 80 80
255 80 80
255 80 80
255 80 80
255 80 80
255 80 80
255 80 80
255 80 80
255 80 80
255 80 80
255 80 80
255 80 80
255 80 80
255 80 80
255 80 80
255 80 80
255 80 80
255 80 80
255 80 80
255 80 80
255 80 80
255 80 80
255 80 80
255 80 80
255 80 80
255 80 80
255 80 80
255 80 80
255 80 80
255 80 80
255 80 80
255 80 80
255 80 80
255 80 80
255 80 80
255 80 80
255 80 80
255 80 80
255 80 80
255 80 80
255 80 80
255 80 80
255 80 80
255 80 80
255 80 80
255 80 80
255 80 80
255 80 80
255 80 80
255 80 80
255 80 80
255 80 80
255 80 80
255 80 80
255 80 80
255 80 80
255 80 80
255 80 80
255 80 80
255 80 80
255 80 80
255 80 80
255 80 80
255 80 80
255 80 80
255 80 80
255 80 80
255 80 80
255 80 80
255 80 80
255 80 80
255 80 80
255 80 80
255 80 80
255 80 80
255 80 80
255 80 80
255 80 80
255 80 80
255 80 80
255 80 80
255 80 80
255 80 80
255 80 80
255 80 80
255 80 80
255 80 80
255 80 80
255 80 80
255 80 80
255 80 80
255 80 80
255 80 80
255 80 80
255 80 80
255 80 80
255 80 80
255 80 80
255 80 80
255 80 80
255 80 80
255 80 80
255 80 80
255 80 80
255 80 80
255 80 80
255 80 80
255 80 80
255 80 80
255 80 80
255 80 80
255 80 80
255 80 80
255 80 80
255 80 80
255 80 80
255 80 80
255 80 80
255 80 80
255 80 80
255 80 80
255 80 80
255 80 80
255 80 80
255 80 80
255 80 80
255 80 80
255 80 80
255 80 80
255 80 80
255 80 80
255 80 80
255 80 80
255 80 80
255 80 80
255 80 80
255 80 80
255 80 80
255 80 80
255 80 80
255 80 80
255 80 80
255 80 80
255 80 80
255 80 80
255 80 80
255 80 80
255 80 80
255 80 80
255 80 80
255 80 80
255 80 80
255 80 80
255 80 80
255 80 80
255 80 80
255 80 80
255 80 80
255 80 80
255 80 80
255 80 80
255 80 80
255 80 80
255 80 80
255 80 80
255 80 80
255 80 80
255 80 80
255 80 80
255 80 80
255 80 80
255 80 80
255 80 80
255 80 80
255 80 80
255 80 80
255 80 80
255 80 80
255 80 80
255 80 80
255 80 80
255 80 80
255 80 80
255 80 80
255 80 80
255 80 80
255 80 80
255 80 80
255 80 80
255 80 80
255 80 80
255 80 80
255 80 80
255 80 80
255 80 80
255 80 80
255 80 80
255 80 80
255 80 80
255 80 80
255 80 80
255 80 80
255 80 80
255 80 80
255 80 80
255 80 80
255 80 80
255 80 80
255 80 80
255 80 80
255 80 80
255 80 80
255 80 80
255 80 80
255 80 80
255 80 80
255 80 80
255 80 80
255 80 80
255 80 80
255 80 80
255 80 80
255 80 80
255 80 80
255 80 80
255 80 80
255 80 80
255 80 80
255 80 80
255 80 80
255 80 80
255 80 80
255 80 80
255 80 80
255 80 80
255 80 80
255 80 80
255 80 80
255 80 80
255 80 80
255 80 80
255 80 80
255 80 80
255 80 80
255 80 80
255 80 80
255 80 80
255 80 80
255 80 80
255 80 80
255 80 80
255 80 80
255 80 80
255 80 80
255 80 80
255 80 80
255 80 80
255 80 80
255 80 80
255 80 80
255 80 80
255 80 80
255 80 80
255 80 80
255 80 80
255 80 80
255 80 80
255 80 80
255 80 80
255 80 80
255 80 80
255 80 80
255 80 80
255 80 80
255 80 80
255 80 80
255 80 80
255 80 80
255 80 80
255 80 80
255 80 80
255 80 80
255 80 80
255 80 80
255 80 80
255 80 80
255 80 80
255 80 80
255 80 80
255 80 80
255 80 80
255 80 80
255 80 80
255 80 80
255 80 80
255 80 80
255 80 80
255 80 80
255 80 80
255 80 80
255 80 80
255 80 80
255 80 80
255 80 80
255 80 80
255 80 80
255 80 80
255 80 80
255 80 80
255 80 80
255 80 80
255 80 80
255 80 80
255 80 80
255 80 80
255 80 80
255 80 80
255 80 80
255 80 80
255 80 80
255 80 80
255 80 80
255 80 80
255 80 80
255 80 80
255 80 80
255 80 80
255 80 80
255 80 80
255 80 80
255 80 80
255 80 80
255 80 80
255 80 80
255 80 80
255 80 80
255 80 80
255 80 80
255 80 80
255 80 80
255 80 80
255 80 80
255 80 80
255 80 80
255 80 80
255 80 80
255 80 80
255 80 80
255 80 80
255 80 80
255 80 80
255 80 80
255 80 80
255 80 80
255 80 80
255 80 80
255 80 80
255 80 80
255 80 80
255 80 80
255 80 80
255 80 80
255 80 80
255 80 80
255 80 80
255 80 80
255 80 80
255 80 80
255 80 80
255 80 80
255 80 80
255 80 80
255 80 80
255 80 80
255 80 80
255 80 80
255 80 80
255 80 80
255 80 80
255 80 80
255 80 80
255 80 80
255 80 80
255 80 80
255 80 80
255 80 80
255 80 80
255 80 80
255 80 80
255 80 80
255 80 80
255 80 80
255 80 80
255 80 80
255 80 80
255 80 80
255 80 80
255 80 80
255 80 80
255 80 80
255 80 80
255 80 80
255 80 80
255 80 80
255 80 80
255 80 80
255 80 80
255 80 80
255 80 80
255 80 80
255 80 80
255 80 80
255 80 80
255 80 80
255 80 80
255 80 80
255 80 80
255 80 80
255 80 80
255 80 80
255 80 80
255 80 80
255 80 80
255 80 80
255 80 80
255 80 80
255 80 80
255 80 80
255 80 80
255 80 80
255 80 80
255 80 80
255 80 80
255 80 80
255 80 80
255 80 80
255 80 80
255 80 80
255 80 80
255 80 80
255 80 80
255 80 80
255 80 80
255 80 80
255 80 80
255 80 80
255 80 80
255 80 80
255 80 80
255 80 80
255 80 80
255 80 80
255 80 80
255 80 80
255 80 80
255 80 80
255 80 80
255 80 80
255 80 80
255 80 80
255 80 80
255 80 80
255 80 80
255 80 80
255 80 80
255 80 80
255 80 80
255 80 80
255 80 80
255 80 80
255 80 80
255 80 80
255 80 80
255 80 80
255 80 80
255 80 80
255 80 80
255 80 80
255 80 80
255 80 80
255 80 80
255 80 80
255 80 80
255 80 80
255 80 80
255 80 80
255 80 80
255 80 80
255 80 80
255 80 80
255 80 80
255 80 80
255 80 80
255 80 80
255 80 80
255 80 80
255 80 80
255 80 80
255 80 80
255 80 80
255 80 80
255 80 80
255 80 80
255 80 80
255 80 80
255 80 80
255 80 80
255 80 80
255 80 80
255 80 80
255 80 80
255 80 80
255 80 80
255 80 80
255 80 80
255 80 80
255 80 80
255 80 80
255 80 80
255 80 80
255 80 80
255 80 80
255 80 80
255 80 80
255 80 80
255 80 80
255 80 80
255 80 80
255 80 80
255 80 80
255 80 80
255 80 80
255 80 80
255 80 80
255 80 80
255 80 80
255 80 80
255 80 80
255 80 80
255 80 80
255 80 80
255 80 80
255 80 80
255 80 80
255 80 80
255 80 80
255 80 80
255 80 80
255 80 80
255 80 80
255 80 80
255 80 80
255 80 80
255 80 80
255 80 80
255 80 80
255 80 80
255 80 80
255 80 80
255 80 80
255 80 80
255 80 80
255 80 80
255 80 80
255 80 80
255 80 80
255 80 80
255 80 80
255 80 80
255 80 80
255 80 80
255 80 80
255 80 80
255 80 80
255 80 80
255 80 80
255 80 80
255 80 80
255 80 80
255 80 80
255 80 80
255 80 80
255 80 80
255 80 80
255 80 80
255 80 80
255 80 80
255 80 80
255 80 80
255 80 80
255 80 80
255 80 80
255 80 80
255 80 80
255 80 80
255 80 80
255 80 80
255 80 80
255 80 80
255 80 80
255 80 80
255 80 80
255 80 80
255 80 80
255 80 80
255 80 80
255 80 80
255 80 80
255 80 80
255 80 80
255 80 80
255 80 80
255 80 80
255 80 80
255 80 80
255 80 80
255 80 80
255 80 80
255 80 80
255 80 80
255 80 80
255 80 80
255 80 80
255 80 80
255 80 80
255 80 80
255 80 80
255 80 80
255 80 80
255 80 80
255 80 80
255 80 80
255 80 80
255 80 80
255 80 80
255 80 80
255 80 80
255 80 80
255 80 80
255 80 80
255 80 80
255 80 80
255 80 80
255 80 80
255 80 80
255 80 80
255 80 80
255 80 80
255 80 80
255 80 80
255 80 80
255 80 80
255 80 80
255 80 80
255 80 80
255 80 80
255 80 80
255 80 80
255 80 80
255 80 80
255 80 80
255 80 80
255 80 80
255 80 80
255 80 80
255 80 80
255 80 80
255 80 80
255 80 80
255 80 80
255 80 80
255 80 80
255 80 80
255 80 80
255 80 80
255 80 80
255 80 80
255 80 80
255 80 80
255 80 80
255 80 80
255 80 80
255 80 80
255 80 80
255 80 80
255 80 80
255 80 80
255 80 80
255 80 80
255 80 80
255 80 80
255 80 80
255 80 80
255 80 80
255 80 80
255 80 80
255 80 80
255 80 80
255 80 80
255 80 80
255 80 80
255 80 80
255 80 80
255 80 80
255 80 80
255 80 80
255 80 80
255 80 80
255 80 80
255 80 80
255 80 80
255 80 80
255 80 80
255 80 80
255 80 80
255 80 80
255 80 80
255 80 80
255 80 80
255 80 80
255 80 80
255 80 80
255 80 80
255 80 80
255 80 80
255 80 80
255 80 80
255 80 80
255 80 80
255 80 80
255 80 80
255 80 80
255 80 80
255 80 80
255 80 80
255 80 80
255 80 80
255 80 80
255 80 80
255 80 80
255 80 80
255 80 80
255 80 80
255 80 80
255 80 80
255 80 80
255 80 80
255 80 80
255 80 80
255 80 80
255 80 80
255 80 80
255 80 80
255 80 80
255 80 80
255 80 80
255 80 80
255 80 80
255 80 80
255 80 80
255 80 80
255 80 80
255 80 80
255 80 80
255 80 80
255 80 80
255 80 80
255 80 80
255 80 80
255 80 80
255 80 80
255 80 80
255 80 80
255 80 80
255 80 80
255 80 80
255 80 80
255 80 80
255 80 80
255 80 80
255 80 80
255 80 80
255 80 80
255 80 80
255 80 80
255 80 80
255 80 80
255 80 80
255 80 80
255 80 80
255 80 80
255 80 80
255 80 80
255 80 80
255 80 80
255 80 80
255 80 80
255 80 80
255 80 80
255 80 80
255 80 80
255 80 80
255 80 80
255 80 80
255 80 80
255 80 80
255 80 80
255 80 80
255 80 80
255 80 80
255 80 80
255 80 80
255 80 80
255 80 80
255 80 80
255 80 80
255 80 80
255 80 80
255 80 80
255 80 80
255 80 80
255 80 80
255 80 80
255 80 80
255 80 80
255 80 80
255 80 80
255 80 80
255 80 80
255 80 80
255 80 80
255 80 80
255 80 80
255 80 80
255 80 80
255 80 80
255 80 80
255 80 80
255 80 80
255 80 80
255 80 80
255 80 80
255 80 80
255 80 80
255 80 80
255 80 80
255 80 80
255 80 80
255 80 80
255 80 80
255 80 80
255 80 80
255 80 80
255 80 80
255 80 80
255 80 80
255 80 80
255 80 80
255 80 80
255 80 80
255 80 80
255 80 80
255 80 80
255 80 80
255 80 80
255 80 80
255 80 80
255 80 80
255 80 80
255 80 80
255 80 80
255 80 80
255 80 80
255 80 80
255 80 80
255 80 80
255 80 80
255 80 80
255 80 80
255 80 80
255 80 80
255 80 80
255 80 80
255 80 80
255 80 80
255 80 80
255 80 80
255 80 80
255 80 80
255 80 80
255 80 80
255 80 80
255 80 80
255 80 80
255 80 80
255 80 80
255 80 80
255 80 80
255 80 80
255 80 80
255 80 80
255 80 80
255 80 80
255 80 80
255 80 80
255 80 80
255 80 80
255 80 80
255 80 80
255 80 80
255 80 80
255 80 80
255 80 80
255 80 80
255 80 80
255 80 80
255 80 80
255 80 80
255 80 80
255 80 80
255 80 80
255 80 80
255 80 80
255 80 80
255 80 80
255 80 80
255 80 80
255 80 80
255 80 80
255 80 80
255 80 80
255 80 80
255 80 80
255 80 80
255 80 80
255 80 80
255 80 80
255 80 80
255 80 80
255 80 80
255 80 80
255 80 80
255 80 80
255 80 80
255 80 80
255 80 80
255 80 80
255 80 80
255 80 80
255 80 80
255 80 80
255 80 80
255 80 80
255 80 80
255 80 80
255 80 80
255 80 80
255 80 80
255 80 80
255 80 80
255 80 80
255 80 80
255 80 80
255 80 80
255 80 80
255 80 80
255 80 80
255 80 80
255 80 80
255 80 80
255 80 80
255 80 80
255 80 80
255 80 80
255 80 80
255 80 80
255 80 80
255 80 80
255 80 80
255 80 80
255 80 80
255 80 80
255 80 80
255 80 80
255 80 80
255 80 80
255 80 80
255 80 80
255 80 80
255 80 80
255 80 80
255 80 80
255 80 80
255 80 80
255 80 80
255 80 80
255 80 80
255 80 80
255 80 80
255 80 80
255 80 80
255 80 80
255 80 80
255 80 80
255 80 80
255 80 80
255 80 80
255 80 80
255 80 80
255 80 80
255 80 80
255 80 80
255 80 80
255 80 80
255 80 80
255 80 80
255 80 80
255 80 80
255 80 80
255 80 80
255 80 80
255 80 80
255 80 80
255 80 80
255 80 80
255 80 80
255 80 80
255 80 80
255 80 80
255 80 80
255 80 80
255 80 80
255 80 80
255 80 80
255 80 80
255 80 80
255 80 80
255 80 80
255 80 80
255 80 80
255 80 80
255 80 80
255 80 80
255 80 80
255 80 80
255 80 80
255 80 80
255 80 80
255 80 80
255 80 80
255 80 80
255 80 80
255 80 80
255 80 80
255 80 80
255 80 80
255 80 80
255 80 80
255 80 80
255 80 80
255 80 80
255 80 80
255 80 80
255 80 80
255 80 80
255 80 80
255 80 80
255 80 80
255 80 80
255 80 80
255 80 80
255 80 80
255 80 80
255 80 80
255 80 80
255 80 80
255 80 80
255 80 80
255 80 80
255 80 80
255 80 80
255 80 80
255 80 80
255 80 80
255 80 80
255 80 80
255 80 80
255 80 80
255 80 80
255 80 80
255 80 80
255 80 80
255 80 80
255 80 80
255 80 80
255 80 80
255 80 80
255 80 80
255 80 80
255 80 80
255 80 80
255 80 80
255 80 80
255 80 80
255 80 80
255 80 80
255 80 80
255 80 80
255 80 80
255 80 80
255 80 80
255 80 80
255 80 80
255 80 80
255 80 80
255 80 80
255 80 80
255 80 80
255 80 80
255 80 80
255 80 80
255 80 80
255 80 80
255 80 80
255 80 80
255 80 80
255 80 80
255 80 80
255 80 80
255 80 80
255 80 80
255 80 80
255 80 80
255 80 80
255 80 80
255 80 80
255 80 80
255 80 80
255 80 80
255 80 80
255 80 80
255 80 80
255 80 80
255 80 80
255 80 80
255 80 80
255 80 80
255 80 80
255 80 80
255 80 80
255 80 80
255 80 80
255 80 80
255 80 80
255 80 80
255 80 80
255 80 80
255 80 80
255 80 80
255 80 80
255 80 80
255 80 80
255 80 80
255 80 80
255 80 80
255 80 80
255 80 80
255 80 80
255 80 80
255 80 80
255 80 80
255 80 80
255 80 80
255 80 80
255 80 80
255 80 80
255 80 80
255 80 80
255 80 80
255 80 80
255 80 80
255 80 80
255 80 80
255 80 80
255 80 80
255 80 80
255 80 80
255 80 80
255 80 80
255 80 80
255 80 80
255 80 80
255 80 80
255 80 80
255 80 80
255 80 80
255 80 80
255 80 80
255 80 80
255 80 80
255 80 80
255 80 80
255 80 80
255 80 80
255 80 80
255 80 80
255 80 80
255 80 80
255 80 80
255 80 80
255 80 80
255 80 80
255 80 80
255 80 80
255 80 80
255 80 80
255 80 80
255 80 80
255 80 80
255 80 80
255 80 80
255 80 80
255 80 80
255 80 80
255 80 80
255 80 80
255 80 80
255 80 80
255 80 80
255 80 80
255 80 80
255 80 80
255 80 80
255 80 80
255 80 80
255 80 80
255 80 80
255 80 80
255 80 80
255 80 80
255 80 80
255 80 80
255 80 80
255 80 80
255 80 80
255 80 80
255 80 80
255 80 80
255 80 80
255 80 80
255 80 80
255 80 80
255 80 80
255 80 80
255 80 80
255 80 80
255 80 80
255 80 80
255 80 80
255 80 80
255 80 80
255 80 80
255 80 80
255 80 80
255 80 80
255 80 80
255 80 80
255 80 80
255 80 80
255 80 80
255 80 80
255 80 80
255 80 80
255 80 80
255 80 80
255 80 80
255 80 80
255 80 80
255 80 80
255 80 80
255 80 80
255 80 80
255 80 80
255 80 80
255 80 80
255 80 80
255 80 80
255 80 80
255 80 80
255 80 80
255 80 80
255 80 80
255 80 80
255 80 80
255 80 80
255 80 80
255 80 80
255 80 80
255 80 80
255 80 80
255 80 80
255 80 80
255 80 80
255 80 80
255 80 80
255 80 80
255 80 80
255 80 80
255 80 80
255 80 80
255 80 80
255 80 80
255 80 80
255 80 80
255 80 80
255 80 80
255 80 80
255 80 80
255 80 80
255 80 80
255 80 80
255 80 80
255 80 80
255 80 80
255 80 80
255 80 80
255 80 80
255 80 80
255 80 80
255 80 80
255 80 80
255 80 80
255 80 80
255 80 80
255 80 80
255 80 80
255 80 80
255 80 80
255 80 80
255 80 80
255 80 80
255 80 80
255 80 80
255 80 80
255 80 80
255 80 80
255 80 80
255 80 80
255 80 80
255 80 80
255 80 80
255 80 80
255 80 80
255 80 80
255 80 80
255 80 80
255 80 80
255 80 80
255 80 80
255 80 80
255 80 80
255 80 80
255 80 80
255 80 80
255 80 80
255 80 80
255 80 80
255 80 80
255 80 80
255 80 80
255 80 80
255 80 80
255 80 80
255 80 80
255 80 80
255 80 80
255 80 80
255 80 80
255 80 80
255 80 80
255 80 80
255 80 80
255 80 80
255 80 80
255 80 80
255 80 80
255 80 80
255 80 80
255 80 80
255 80 80
255 80 80
255 80 80
255 80 80
255 80 80
255 80 80
255 80 80
255 80 80
255 80 80
255 80 80
255 80 80
255 80 80
255 80 80
255 80 80
255 80 80
255 80 80
255 80 80
255 80 80
255 80 80
255 80 80
255 80 80
255 80 80
255 80 80
255 80 80
255 80 80
255 80 80
255 80 80
255 80 80
255 80 80
255 80 80
255 80 80
255 80 80
255 80 80
255 80 80
255 80 80
255 80 80
255 80 80
255 80 80
255 80 80
255 80 80
255 80 80
255 80 80
255 80 80
255 80 80
255 80 80
255 80 80
255 80 80
255 80 80
255 80 80
255 80 80
255 80 80
255 80 80
255 80 80
255 80 80
255 80 80
255 80 80
255 80 80
255 80 80
255 80 80
255 80 80
255 80 80
255 80 80
255 80 80
255 80 80
255 80 80
255 80 80
255 80 80
255 80 80
255 80 80
255 80 80
255 80 80
255 80 80
255 80 80
255 80 80
255 80 80
255 80 80
255 80 80
255 80 80
255 80 80
255 80 80
255 80 80
255 80 80
255 80 80
255 80 80
255 80 80
255 80 80
255 80 80
255 80 80
255 80 80
255 80 80
255 80 80
255 80 80
255 80 80
255 80 80
255 80 80
255 80 80
255 80 80
255 80 80
255 80 80
255 80 80
255 80 80
255 80 80
255 80 80
255 80 80
255 80 80
255 80 80
255 80 80
255 80 80
255 80 80
255 80 80
255 80 80
255 80 80
255 80 80
255 80 80
255 80 80
255 80 80
255 80 80
255 80 80
255 80 80
255 80 80
255 80 80
255 80 80
255 80 80
255 80 80
255 80 80
255 80 80
255 80 80
255 80 80
255 80 80
255 80 80
255 80 80
255 80 80
255 80 80
255 80 80
255 80 80
255 80 80
255 80 80
255 80 80
255 80 80
255 80 80
255 80 80
255 80 80
255 80 80
255 80 80
255 80 80
255 80 80
255 80 80
255 80 80
255 80 80
255 80 80
255 80 80
255 80 80
255 80 80
255 80 80
255 80 80
255 80 80
255 80 80
255 80 80
255 80 80
255 80 80
255 80 80
255 80 80
255 80 80
255 80 80
255 80 80
255 80 80
255 80 80
255 80 80
255 80 80
255 80 80
255 80 80
255 80 80
255 80 80
255 80 80
255 80 80
255 80 80
255 80 80
255 80 80
255 80 80
255 80 80
255 80 80
255 80 80
255 80 80
255 80 80
255 80 80
255 80 80
255 80 80
255 80 80
255 80 80
255 80 80
255 80 80
255 80 80
255 80 80
255 80 80
255 80 80
255 80 80
255 80 80
255 80 80
255 80 80
255 80 80
255 80 80
255 80 80
255 80 80
255 80 80
255 80 80
255 80 80
255 80 80
255 80 80
255 80 80
255 80 80
255 80 80
255 80 80
255 80 80
255 80 80
255 80 80
255 80 80
255 80 80
255 80 80
255 80 80
255 80 80
255 80 80
255 80 80
255 80 80
255 80 80
255 80 80
255 80 80
255 80 80
255 80 80
255 80 80
255 80 80
255 80 80
255 80 80
255 80 80
255 80 80
255 80 80
255 80 80
255 80 80
255 80 80
255 80 80
255 80 80
255 80 80
255 80 80
255 80 80
255 80 80
255 80 80
255 80 80
255 80 80
255 80 80
255 80 80
255 80 80
255 80 80
255 80 80
255 80 80
255 80 80
255 80 80
255 80 80
255 80 80
255 80 80
255 80 80
255 80 80
255 80 80
255 80 80
255 80 80
255 80 80
255 80 80
255 80 80
255 80 80
255 80 80
255 80 80
255 80 80
255 80 80
255 80 80
255 80 80
255 80 80
255 80 80
255 80 80
255 80 80
255 80 80
255 80 80
255 80 80
255 80 80
255 80 80
255 80 80
255 80 80
255 80 80
255 80 80
255 80 80
255 80 80
255 80 80
255 80 80
255 80 80
255 80 80
255 80 80
255 80 80
255 80 80
255 80 80
255 80 80
255 80 80
255 80 80
255 80 80
255 80 80
255 80 80
255 80 80
255 80 80
255 80 80
255 80 80
255 80 80
255 80 80
255 80 80
255 80 80
255 80 80
255 80 80
255 80 80
255 80 80
255 80 80
255 80 80
255 80 80
255 80 80
255 80 80
255 80 80
255 80 80
255 80 80
255 80 80
255 80 80
255 80 80
255 80 80
255 80 80
255 80 80
255 80 80
255 80 80
255 80 80
255 80 80
255 80 80
255 80 80
255 80 80
255 80 80
255 80 80
255 80 80
255 80 80
255 80 80
255 80 80
255 80 80
255 80 80
255 80 80
255 80 80
255 80 80
255 80 80
255 80 80
255 80 80
255 80 80
255 80 80
255 80 80
255 80 80
255 80 80
255 80 80
255 80 80
255 80 80
255 80 80
255 80 80
255 80 80
255 80 80
255 80 80
255 80 80
255 80 80
255 80 80
255 80 80
255 80 80
255 80 80
255 80 80
255 80 80
255 80 80
255 80 80
255 80 80
255 80 80
255 80 80
255 80 80
255 80 80
255 80 80
255 80 80
255 80 80
255 80 80
255 80 80
255 80 80
255 80 80
255 80 80
255 80 80
255 80 80
255 80 80
255 80 80
255 80 80
255 80 80
255 80 80
255 80 80
255 80 80
255 80 80
255 80 80
255 80 80
255 80 80
255 80 80
255 80 80
255 80 80
255 80 80
255 80 80
255 80 80
255 80 80
255 80 80
255 80 80
255 80 80
255 80 80
255 80 80
255 80 80
255 80 80
255 80 80
255 80 80
255 80 80
255 80 80
255 80 80
255 80 80
255 80 80
255 80 80
255 80 80
255 80 80
255 80 80
255 80 80
255 80 80
255 80 80
255 80 80
255 80 80
255 80 80
255 80 80
255 80 80
255 80 80
255 80 80
255 80 80
255 80 80
255 80 80
255 80 80
255 80 80
255 80 80
255 80 80
255 80 80
255 80 80
255 80 80
255 80 80
255 80 80
255 80 80
255 80 80
255 80 80
255 80 80
255 80 80
255 80 80
255 80 80
255 80 80
255 80 80
255 80 80
255 80 80
255 80 80
255 80 80
255 80 80
255 80 80
255 80 80
255 80 80
255 80 80
255 80 80
255 80 80
255 80 80
255 80 80
255 80 80
255 80 80
255 80 80
255 80 80
255 80 80
255 80 80
255 80 80
255 80 80
255 80 80
255 80 80
255 80 80
255 80 80
255 80 80
255 80 80
255 80 80
255 80 80
255 80 80
255 80 80
255 80 80
255 80 80
255 80 80
255 80 80
255 80 80
255 80 80
255 80 80
255 80 80
255 80 80
255 80 80
255 80 80
255 80 80
255 80 80
255 80 80
255 80 80
255 80 80
255 80 80
255 80 80
255 80 80
255 80 80
255 80 80
255 80 80
255 80 80
255 80 80
255 80 80
255 80 80
255 80 80
255 80 80
255 80 80
255 80 80
255 80 80
255 80 80
255 80 80
255 80 80
255 80 80
255 80 80
255 80 80
255 80 80
255 80 80
255 80 80
255 80 80
255 80 80
255 80 80
255 80 80
255 80 80
255 80 80
255 80 80
255 80 80
255 80 80
255 80 80
255 80 80
255 80 80
255 80 80
255 80 80
255 80 80
255 80 80
255 80 80
255 80 80
255 80 80
255 80 80
255 80 80
255 80 80
255 80 80
255 80 80
255 80 80
255 80 80
255 80 80
255 80 80
255 80 80
255 80 80
255 80 80
255 80 80
255 80 80
255 80 80
255 80 80
255 80 80
255 80 80
255 80 80
255 80 80
255 80 80
255 80 80
255 80 80
255 80 80
255 80 80
255 80 80
255 80 80
255 80 80
255 80 80
255 80 80
255 80 80
255 80 80
255 80 80
255 80 80
255 80 80
255 80 80
255 80 80
255 80 80
255 80 80
255 80 80
255 80 80
255 80 80
255 80 80
255 80 80
255 80 80
255 80 80
255 80 80
255 80 80
255 80 80
255 80 80
255 80 80
255 80 80
255 80 80
255 80 80
255 80 80
255 80 80
255 80 80
255 80 80
255 80 80
255 80 80
255 80 80
255 80 80
255 80 80
255 80 80
255 80 80
255 80 80
255 80 80
255 80 80
255 80 80
255 80 80
255 80 80
255 80 80
255 80 80
255 80 80
255 80 80
255 80 80
255 80 80
255 80 80
255 80 80
255 80 80
255 80 80
255 80 80
255 80 80
255 80 80
255 80 80
255 80 80
255 80 80
255 80 80
255 80 80
255 80 80
255 80 80
255 80 80
255 80 80
255 80 80
255 80 80
255 80 80
255 80 80
255 80 80
255 80 80
255 80 80
255 80 80
255 80 80
255 80 80
255 80 80
255 80 80
255 80 80
255 80 80
255 80 80
255 80 80
255 80 80
255 80 80
255 80 80
255 80 80
255 80 80
255 80 80
255 80 80
255 80 80
255 80 80
255 80 80
255 80 80
255 80 80
255 80 80
255 80 80
255 80 80
255 80 80
255 80 80
255 80 80
255 80 80
255 80 80
255 80 80
255 80 80
255 80 80
255 80 80
255 80 80
255 80 80
255 80 80
255 80 80
255 80 80
255 80 80
255 80 80
255 80 80
255 80 80
255 80 80
255 80 80
255 80 80
255 80 80
255 80 80
255 80 80
255 80 80
255 80 80
255 80 80
255 80 80
255 80 80
255 80 80
255 80 80
255 80 80
255 80 80
255 80 80
255 80 80
255 80 80
255 80 80
255 80 80
255 80 80
255 80 80
255 80 80
255 80 80
255 80 80
255 80 80
255 80 80
255 80 80
255 80 80
255 80 80
255 80 80
255 80 80
255 80 80
255 80 80
255 80 80
255 80 80
255 80 80
255 80 80
255 80 80
255 80 80
255 80 80
255 80 80
255 80 80
255 80 80
255 80 80
255 80 80
255 80 80
255 80 80
255 80 80
255 80 80
255 80 80
255 80 80
255 80 80
255 80 80
255 80 80
255 80 80
255 80 80
255 80 80
255 80 80
255 80 80
255 80 80
255 80 80
255 80 80
255 80 80
255 80 80
255 80 80
255 80 80
255 80 80
255 80 80
255 80 80
255 80 80
255 80 80
255 80 80
255 80 80
255 80 80
255 80 80
255 80 80
255 80 80
255 80 80
255 80 80
255 80 80
255 80 80
255 80 80
255 80 80
255 80 80
255 80 80
255 80 80
255 80 80
255 80 80
255 80 80
255 80 80
255 80 80
255 80 80
255 80 80
255 80 80
255 80 80
255 80 80
255 80 80
255 80 80
255 80 80
255 80 80
255 80 80
255 80 80
255 80 80
255 80 80
255 80 80
255 80 80
255 80 80
255 80 80
255 80 80
255 80 80
255 80 80
255 80 80
255 80 80
255 80 80
255 80 80
255 80 80
255 80 80
255 80 80
255 80 80
255 80 80
255 80 80
255 80 80
255 80 80
255 80 80
255 80 80
255 80 80
255 80 80
255 80 80
255 80 80
255 80 80
255 80 80
255 80 80
255 80 80
255 80 80
255 80 80
255 80 80
255 80 80
255 80 80
255 80 80
255 80 80
255 80 80
255 80 80
255 80 80
255 80 80
255 80 80
255 80 80
255 80 80
255 80 80
255 80 80
255 80 80
255 80 80
255 80 80
255 80 80
255 80 80
255 80 80
255 80 80
255 80 80
255 80 80
255 80 80
255 80 80
255 80 80
255 80 80
255 80 80
255 80 80
255 80 80
255 80 80
255 80 80
255 80 80
255 80 80
255 80 80
255 80 80
255 80 80
255 80 80
255 80 80
255 80 80
255 80 80
255 80 80
255 80 80
255 80 80
255 80 80
255 80 80
255 80 80
255 80 80
255 80 80
255 80 80
255 80 80
255 80 80
255 80 80
255 80 80
255 80 80
255 80 80
255 80 80
255 80 80
255 80 80
255 80 80
255 80 80
255 80 80
255 80 80
255 80 80
255 80 80
255 80 80
255 80 80
255 80 80
255 80 80
255 80 80
255 80 80
255 80 80
255 80 80
255 80 80
255 80 80
255 80 80
255 80 80
255 80 80
255 80 80
255 80 80
255 80 80
255 80 80
255 80 80
255 80 80
255 80 80
255 80 80
255 80 80
255 80 80
255 80 80
255 80 80
255 80 80
255 80 80
255 80 80
255 80 80
255 80 80
255 80 80
255 80 80
255 80 80
255 80 80
255 80 80
255 80 80
255 80 80
255 80 80
255 80 80
255 80 80
255 80 80
255 80 80
255 80 80
255 80 80
255 80 80
255 80 80
255 80 80
255 80 80
255 80 80
255 80 80
255 80 80
255 80 80
255 80 80
255 80 80
255 80 80
255 80 80
255 80 80
255 80 80
255 80 80
255 80 80
255 80 80
255 80 80
255 80 80
255 80 80
255 80 80
255 80 80
255 80 80
255 80 80
255 80 80
255 80 80
255 80 80
255 80 80
255 80 80
255 80 80
255 80 80
255 80 80
255 80 80
255 80 80
255 80 80
255 80 80
255 80 80
255 80 80
255 80 80
255 80 80
255 80 80
255 80 80
255 80 80
255 80 80
255 80 80
255 80 80
255 80 80
255 80 80
255 80 80
255 80 80
255 80 80
255 80 80
255 80 80
255 80 80
255 80 80
255 80 80
255 80 80
255 80 80
255 80 80
255 80 80
255 80 80
255 80 80
255 80 80
255 80 80
255 80 80
255 80 80
255 80 80
255 80 80
255 80 80
255 80 80
255 80 80
255 80 80
255 80 80
255 80 80
255 80 80
255 80 80
255 80 80
255 80 80
255 80 80
255 80 80
255 80 80
255 80 80
255 80 80
255 80 80
255 80 80
255 80 80
255 80 80
255 80 80
255 80 80
255 80 80
255 80 80
255 80 80
255 80 80
255 80 80
255 80 80
255 80 80
255 80 80
255 80 80
255 80 80
255 80 80
255 80 80
255 80 80
255 80 80
255 80 80
255 80 80
255 80 80
255 80 80
255 80 80
255 80 80
255 80 80
255 80 80
255 80 80
255 80 80
255 80 80
255 80 80
255 80 80
255 80 80
255 80 80
255 80 80
255 80 80
255 80 80
255 80 80
255 80 80
255 80 80
255 80 80
255 80 80
255 80 80
255 80 80
255 80 80
255 80 80
255 80 80
255 80 80
255 80 80
255 80 80
255 80 80
255 80 80
255 80 80
255 80 80
255 80 80
255 80 80
255 80 80
255 80 80
255 80 80
255 80 80
255 80 80
255 80 80
255 80 80
255 80 80
255 80 80
255 80 80
255 80 80
255 80 80
255 80 80
255 80 80
255 80 80
255 80 80
255 80 80
255 80 80
255 80 80
255 80 80
255 80 80
255 80 80
255 80 80
255 80 80
255 80 80
255 80 80
255 80 80
255 80 80
255 80 80
255 80 80
255 80 80
255 80 80
255 80 80
255 80 80
255 80 80
255 80 80
255 80 80
255 80 80
255 80 80
255 80 80
255 80 80
255 80 80
255 80 80
255 80 80
255 80 80
255 80 80
255 80 80
255 80 80
255 80 80
255 80 80
255 80 80
255 80 80
255 80 80
255 80 80
255 80 80
255 80 80
255 80 80
255 80 80
255 80 80
255 80 80
255 80 80
255 80 80
255 80 80
255 80 80
255 80 80
255 80 80
255 80 80
255 80 80
255 80 80
255 80 80
255 80 80
255 80 80
255 80 80
255 80 80
255 80 80
255 80 80
255 80 80
255 80 80
255 80 80
255 80 80
255 80 80
255 80 80
255 80 80
255 80 80
255 80 80
255 80 80
255 80 80
255 80 80
255 80 80
255 80 80
255 80 80
255 80 80
255 80 80
255 80 80
255 80 80
255 80 80
255 80 80
255 80 80
255 80 80
255 80 80
255 80 80
255 80 80
255 80 80
255 80 80
255 80 80
255 80 80
255 80 80
255 80 80
255 80 80
255 80 80
255 80 80
255 80 80
255 80 80
255 80 80
255 80 80
255 80 80
255 80 80
255 80 80
255 80 80
255 80 80
255 80 80
255 80 80
255 80 80
255 80 80
255 80 80
255 80 80
255 80 80
255 80 80
255 80 80
255 80 80
255 80 80
255 80 80
255 80 80
255 80 80
255 80 80
255 80 80
255 80 80
255 80 80
255 80 80
255 80 80
255 80 80
255 80 80
255 80 80
255 80 80
255 80 80
255 80 80
255 80 80
255 80 80
255 80 80
255 80 80
255 80 80
255 80 80
255 80 80
255 80 80
255 80 80
255 80 80
255 80 80
255 80 80
255 80 80
255 80 80
255 80 80
255 80 80
255 80 80
255 80 80
255 80 80
255 80 80
255 80 80
255 80 80
255 80 80
255 80 80
255 80 80
255 80 80
255 80 80
255 80 80
255 80 80
255 80 80
255 80 80
255 80 80
255 80 80
255 80 80
255 80 80
255 80 80
255 80 80
255 80 80
255 80 80
255 80 80
255 80 80
255 80 80
255 80 80
255 80 80
255 80 80
255 80 80
255 80 80
255 80 80
255 80 80
255 80 80
255 80 80
255 80 80
255 80 80
255 80 80
255 80 80
255 80 80
255 80 80
255 80 80
255 80 80
255 80 80
255 80 80
255 80 80
255 80 80
255 80 80
255 80 80
255 80 80
255 80 80
255 80 80
255 80 80
255 80 80
255 80 80
255 80 80
255 80 80
255 80 80
255 80 80
255 80 80
255 80 80
255 80 80
255 80 80
255 80 80
255 80 80
255 80 80
255 80 80
255 80 80
255 80 80
255 80 80
255 80 80
255 80 80
255 80 80
255 80 80
255 80 80
255 80 80
255 80 80
255 80 80
255 80 80
255 80 80
255 80 80
255 80 80
255 80 80
255 80 80
255 80 80
255 80 80
255 80 80
255 80 80
255 80 80
255 80 80
255 80 80
255 80 80
255 80 80
255 80 80
255 80 80
255 80 80
255 80 80
255 80 80
255 80 80
255 80 80
255 80 80
255 80 80
255 80 80
255 80 80
255 80 80
255 80 80
255 80 80
255 80 80
255 80 80
255 80 80
255 80 80
255 80 80
255 80 80
255 80 80
255 80 80
255 80 80
255 80 80
255 80 80
255 80 80
255 80 80
255 80 80
255 80 80
255 80 80
255 80 80
255 80 80
255 80 80
255 80 80
255 80 80
255 80 80
255 80 80
255 80 80
255 80 80
255 80 80
255 80 80
255 80 80
255 80 80
255 80 80
255 80 80
255 80 80
255 80 80
255 80 80
255 80 80
255 80 80
255 80 80
255 80 80
255 80 80
255 80 80
255 80 80
255 80 80
255 80 80
255 80 80
255 80 80
255 80 80
255 80 80
255 80 80
255 80 80
255 80 80
255 80 80
255 80 80
255 80 80
255 80 80
255 80 80
255 80 80
255 80 80
255 80 80
255 80 80
255 80 80
255 80 80
255 80 80
255 80 80
255 80 80
255 80 80
255 80 80
255 80 80
255 80 80
255 80 80
255 80 80
255 80 80
255 80 80
255 80 80
255 80 80
255 80 80
255 80 80
255 80 80
255 80 80
255 80 80
255 80 80
255 80 80
255 80 80
255 80 80
255 80 80
255 80 80
255 80 80
255 80 80
255 80 80
255 80 80
255 80 80
255 80 80
255 80 80
255 80 80
255 80 80
255 80 80
255 80 80
255 80 80
255 80 80
255 80 80
255 80 80
255 80 80
255 80 80
255 80 80
255 80 80
255 80 80
255 80 80
255 80 80
255 80 80
255 80 80
255 80 80
255 80 80
255 80 80
255 80 80
255 80 80
255 80 80
255 80 80
255 80 80
255 80 80
255 80 80
255 80 80
255 80 80
255 80 80
255 80 80
255 80 80
255 80 80
255 80 80
255 80 80
255 80 80
255 80 80
255 80 80
255 80 80
255 80 80
255 80 80
255 80 80
255 80 80
255 80 80
255 80 80
255 80 80
255 80 80
255 80 80
255 80 80
255 80 80
255 80 80
255 80 80
255 80 80
255 80 80
255 80 80
255 80 80
255 80 80
255 80 80
255 80 80
255 80 80
255 80 80
255 80 80
255 80 80
255 80 80
255 80 80
255 80 80
255 80 80
255 80 80
255 80 80
255 80 80
255 80 80
255 80 80
255 80 80
255 80 80
255 80 80
255 80 80
255 80 80
255 80 80
255 80 80
255 80 80
255 80 80
255 80 80
255 80 80
255 80 80
255 80 80
255 80 80
255 80 80
255 80 80
255 80 80
255 80 80
255 80 80
255 80 80
255 80 80
255 80 80
255 80 80
255 80 80
255 80 80
255 80 80
255 80 80
255 80 80
255 80 80
255 80 80
255 80 80
255 80 80
255 80 80
255 80 80
255 80 80
255 80 80
255 80 80
255 80 80
255 80 80
255 80 80
255 80 80
255 80 80
255 80 80
255 80 80
255 80 80
255 80 80
255 80 80
255 80 80
255 80 80
255 80 80
255 80 80
255 80 80
255 80 80
255 80 80
255 80 80
255 80 80
255 80 80
255 80 80
255 80 80
255 80 80
255 80 80
255 80 80
255 80 80
255 80 80
255 80 80
255 80 80
255 80 80
255 80 80
255 80 80
255 80 80
255 80 80
255 80 80
255 80 80
255 80 80
255 80 80
255 80 80
255 80 80
255 80 80
255 80 80
255 80 80
255 80 80
255 80 80
255 80 80
255 80 80
255 80 80
255 80 80
255 80 80
255 80 80
255 80 80
255 80 80
255 80 80
255 80 80
255 80 80
255 80 80
255 80 80
255 80 80
255 80 80
255 80 80
255 80 80
255 80 80
255 80 80
255 80 80
255 80 80
255 80 80
255 80 80
255 80 80
255 80 80
255 80 80
255 80 80
255 80 80
255 80 80
255 80 80
255 80 80
255 80 80
255 80 80
255 80 80
255 80 80
255 80 80
255 80 80
255 80 80
255 80 80
255 80 80
255 80 80
255 80 80
255 80 80
255 80 80
255 80 80
255 80 80
255 80 80
255 80 80
255 80 80
255 80 80
255 80 80
255 80 80
255 80 80
255 80 80
255 80 80
255 80 80
255 80 80
255 80 80
255 80 80
255 80 80
255 80 80
255 80 80
255 80 80
255 80 80
255 80 80
255 80 80
255 80 80
255 80 80
255 80 80
255 80 80
255 80 80
255 80 80
255 80 80
255 80 80
255 80 80
255 80 80
255 80 80
255 80 80
255 80 80
255 80 80
255 80 80
255 80 80
255 80 80
255 80 80
255 80 80
255 80 80
255 80 80
255 80 80
255 80 80
255 80 80
255 80 80
255 80 80
255 80 80
255 80 80
255 80 80
255 80 80
255 80 80
255 80 80
255 80 80
255 80 80
255 80 80
255 80 80
255 80 80
255 80 80
255 80 80
255 80 80
255 80 80
255 80 80
255 80 80
255 80 80
255 80 80
255 80 80
255 80 80
255 80 80
255 80 80
255 80 80
255 80 80
255 80 80
255 80 80
255 80 80
255 80 80
255 80 80
255 80 80
255 80 80
255 80 80
255 80 80
255 80 80
255 80 80
255 80 80
255 80 80
255 80 80
255 80 80
255 80 80
255 80 80
255 80 80
255 80 80
255 80 80
255 80 80
255 80 80
255 80 80
255 80 80
255 80 80
255 80 80
255 80 80
255 80 80
255 80 80
255 80 80
255 80 80
255 80 80
255 80 80
255 80 80
255 80 80
255 80 80
255 80 80
255 80 80
255 80 80
255 80 80
255 80 80
255 80 80
255 80 80
255 80 80
255 80 80
255 80 80
255 80 80
255 80 80
255 80 80
255 80 80
255 80 80
255 80 80
255 80 80
255 80 80
255 80 80
255 80 80
255 80 80
255 80 80
255 80 80
255 80 80
255 80 80
255 80 80
255 80 80
255 80 80
255 80 80
255 80 80
255 80 80
255 80 80
255 80 80
255 80 80
255 80 80
255 80 80
255 80 80
255 80 80
255 80 80
255 80 80
255 80 80
255 80 80
255 80 80
255 80 80
255 80 80
255 80 80
255 80 80
255 80 80
255 80 80
255 80 80
255 80 80
255 80 80
255 80 80
255 80 80
255 80 80
255 80 80
255 80 80
255 80 80
255 80 80
255 80 80
255 80 80
255 80 80
255 80 80
255 80 80
255 80 80
255 80 80
255 80 80
255 80 80
255 80 80
255 80 80
255 80 80
255 80 80
255 80 80
255 80 80
255 80 80
255 80 80
255 80 80
255 80 80
255 80 80
255 80 80
255 80 80
255 80 80
255 80 80
255 80 80
255 80 80
255 80 80
255 80 80
255 80 80
255 80 80
255 80 80
255 80 80
255 80 80
255 80 80
255 80 80
255 80 80
255 80 80
255 80 80
255 80 80
255 80 80
255 80 80
255 80 80
255 80 80
255 80 80
255 80 80
255 80 80
255 80 80
255 80 80
255 80 80
255 80 80
255 80 80
255 80 80
255 80 80
255 80 80
255 80 80
255 80 80
255 80 80
255 80 80
255 80 80
255 80 80
255 80 80
255 80 80
255 80 80
255 80 80
255 80 80
255 80 80
255 80 80
255 80 80
255 80 80
255 80 80
255 80 80
255 80 80
255 80 80
255 80 80
255 80 80
255 80 80
255 80 80
255 80 80
255 80 80
255 80 80
255 80 80
255 80 80
255 80 80
255 80 80
255 80 80
255 80 80
255 80 80
255 80 80
255 80 80
255 80 80
255 80 80
255 80 80
255 80 80
255 80 80
255 80 80
255 80 80
255 80 80
255 80 80
255 80 80
255 80 80
255 80 80
255 80 80
255 80 80
255 80 80
255 80 80
255 80 80
255 80 80
255 80 80
255 80 80
255 80 80
255 80 80
255 80 80
255 80 80
255 80 80
255 80 80
255 80 80
255 80 80
255 80 80
255 80 80
255 80 80
255 80 80
255 80 80
255 80 80
255 80 80
255 80 80
255 80 80
255 80 80
255 80 80
255 80 80
255 80 80
255 80 80
255 80 80
255 80 80
255 80 80
255 80 80
255 80 80
255 80 80
255 80 80
255 80 80
255 80 80
255 80 80
255 80 80
255 80 80
255 80 80
255 80 80
255 80 80
255 80 80
255 80 80
255 80 80
255 80 80
255 80 80
255 80 80
255 80 80
255 80 80
255 80 80
255 80 80
255 80 80
255 80 80
255 80 80
255 80 80
255 80 80
255 80 80
255 80 80
255 80 80
255 80 80
255 80 80
255 80 80
255 80 80
255 80 80
255 80 80
255 80 80
255 80 80
255 80 80
255 80 80
255 80 80
255 80 80
255 80 80
255 80 80
255 80 80
255 80 80
255 80 80
255 80 80
255 80 80
255 80 80
255 80 80
255 80 80
255 80 80
255 80 80
255 80 80
255 80 80
255 80 80
255 80 80
255 80 80
255 80 80
255 80 80
255 80 80
255 80 80
255 80 80
255 80 80
255 80 80
255 80 80
255 80 80
255 80 80
255 80 80
255 80 80
255 80 80
255 80 80
255 80 80
255 80 80
255 80 80
255 80 80
255 80 80
255 80 80
255 80 80
255 80 80
255 80 80
255 80 80
255 80 80
255 80 80
255 80 80
255 80 80
255 80 80
255 80 80
255 80 80
255 80 80
255 80 80
255 80 80
255 80 80
255 80 80
255 80 80
255 80 80
255 80 80
255 80 80
255 80 80
255 80 80
255 80 80
255 80 80
255 80 80
255 80 80
255 80 80
255 80 80
255 80 80
255 80 80
255 80 80
255 80 80
255 80 80
255 80 80
255 80 80
255 80 80
255 80 80
255 80 80
255 80 80
255 80 80
255 80 80
255 80 80
255 80 80
255 80 80
255 80 80
255 80 80
255 80 80
255 80 80
255 80 80
255 80 80
255 80 80
255 80 80
255 80 80
255 80 80
255 80 80
255 80 80
255 80 80
255 80 80
255 80 80
255 80 80
255 80 80
255 80 80
255 80 80
255 80 80
255 80 80
255 80 80
255 80 80
255 80 80
255 80 80
255 80 80
255 80 80
255 80 80
255 80 80
255 80 80
255 80 80
255 80 80
255 80 80
255 80 80
255 80 80
255 80 80
255 80 80
255 80 80
255 80 80
255 80 80
255 80 80
255 80 80
255 80 80
255 80 80
255 80 80
255 80 80
255 80 80
255 80 80
255 80 80
255 80 80
255 80 80
255 80 80
255 80 80
255 80 80
255 80 80
255 80 80
255 80 80
255 80 80
255 80 80
255 80 80
255 80 80
255 80 80
255 80 80
255 80 80
255 80 80
255 80 80
255 80 80
255 80 80
255 80 80
255 80 80
255 80 80
255 80 80
255 80 80
255 80 80
255 80 80
255 80 80
255 80 80
255 80 80
255 80 80
255 80 80
255 80 80
255 80 80
255 80 80
255 80 80
255 80 80
255 80 80
255 80 80
255 80 80
255 80 80
255 80 80
255 80 80
255 80 80
255 80 80
255 80 80
255 80 80
255 80 80
255 80 80
255 80 80
255 80 80
255 80 80
255 80 80
255 80 80
255 80 80
255 80 80
255 80 80
255 80 80
255 80 80
255 80 80
255 80 80
255 80 80
255 80 80
255 80 80
255 80 80
255 80 80
255 80 80
255 80 80
255 80 80
255 80 80
255 80 80
255 80 80
255 80 80
255 80 80
255 80 80
255 80 80
255 80 80
255 80 80
255 80 80
255 80 80
255 80 80
255 80 80
255 80 80
255 80 80
255 80 80
255 80 80
255 80 80
255 80 80
255 80 80
255 80 80
255 80 80
255 80 80
255 80 80
255 80 80
255 80 80
255 80 80
255 80 80
255 80 80
255 80 80
255 80 80
255 80 80
255 80 80
255 80 80
255 80 80
255 80 80
255 80 80
255 80 80
255 80 80
255 80 80
255 80 80
255 80 80
255 80 80
255 80 80
255 80 80
255 80 80
255 80 80
255 80 80
255 80 80
255 80 80
255 80 80
255 80 80
255 80 80
255 80 80
255 80 80
255 80 80
255 80 80
255 80 80
255 80 80
255 80 80
255 80 80
255 80 80
255 80 80
255 80 80
255 80 80
255 80 80
255 80 80
255 80 80
255 80 80
255 80 80
255 80 80
255 80 80
255 80 80
255 80 80
255 80 80
255 80 80
255 80 80
255 80 80
255 80 80
255 80 80
255 80 80
255 80 80
255 80 80
255 80 80
255 80 80
255 80 80
255 80 80
255 80 80
255 80 80
255 80 80
255 80 80
255 80 80
255 80 80
255 80 80
255 80 80
255 80 80
255 80 80
255 80 80
255 80 80
255 80 80
255 80 80
255 80 80
255 80 80
255 80 80
255 80 80
255 80 80
255 80 80
255 80 80
255 80 80
255 80 80
255 80 80
255 80 80
255 80 80
255 80 80
255 80 80
255 80 80
255 80 80
255 80 80
255 80 80
255 80 80
255 80 80
255 80 80
255 80 80
255 80 80
255 80 80
255 80 80
255 80 80
255 80 80
255 80 80
255 80 80
255 80 80
255 80 80
255 80 80
255 80 80
255 80 80
255 80 80
255 80 80
255 80 80
255 80 80
255 80 80
255 80 80
255 80 80
255 80 80
255 80 80
255 80 80
255 80 80
255 80 80
255 80 80
255 80 80
255 80 80
255 80 80
255 80 80
255 80 80
255 80 80
255 80 80
255 80 80
255 80 80
255 80 80
255 80 80
255 80 80
255 80 80
255 80 80
255 80 80
255 80 80
255 80 80
255 80 80
255 80 80
255 80 80
255 80 80
255 80 80
255 80 80
255 80 80
255 80 80
255 80 80
255 80 80
255 80 80
255 80 80
255 80 80
255 80 80
255 80 80
255 80 80
255 80 80
255 80 80
255 80 80
255 80 80
255 80 80
255 80 80
255 80 80
255 80 80
255 80 80
255 80 80
255 80 80
255 80 80
255 80 80
255 80 80
255 80 80
255 80 80
255 80 80
255 80 80
255 80 80
255 80 80
255 80 80
255 80 80
255 80 80
255 80 80
255 80 80
255 80 80
255 80 80
255 80 80
255 80 80
255 80 80
255 80 80
255 80 80
255 80 80
255 80 80
255 80 80
255 80 80
255 80 80
255 80 80
255 80 80
255 80 80
255 80 80
255 80 80
255 80 80
255 80 80
255 80 80
255 80 80
255 80 80
255 80 80
255 80 80
255 80 80
255 80 80
255 80 80
255 80 80
255 80 80
255 80 80
255 80 80
255 80 80
255 80 80
255 80 80
255 80 80
255 80 80
255 80 80
255 80 80
255 80 80
255 80 80
255 80 80
255 80 80
255 80 80
255 80 80
255 80 80
255 80 80
255 80 80
255 80 80
255 80 80
255 80 80
255 80 80
255 80 80
255 80 80
255 80 80
255 80 80
255 80 80
255 80 80
255 80 80
255 80 80
255 80 80
255 80 80
255 80 80
255 80 80
255 80 80
255 80 80
255 80 80
255 80 80
255 80 80
255 80 80
255 80 80
255 80 80
255 80 80
255 80 80
